!!!!SEGMENT: pl-wn--mus-iii-86-055_zelenski-wladyslaw--do-pracy.krn
!!!cenid: 18xx:3791
!!!COM: Żeleński, Władysław
!!!COM-rismID: pe41024455
!!!CDT: 1837/07/06-1921/01/23
!!!CNT: Polish
!!!OTL: Do pracy
!!!PDT:
!!!AGN:
!!!SMS-siglum: PL-Wn
!!!SMS-shelfmark: Mus.III.86.055
!!!SMS-shelfwork: W
!!!SMS-variant:
!!!SMS-altvar:
!!!NIFC-rismSourceID:
!!!NIFC-islandoraID:
!!!URL-pdf-islandora:
!!!URL-scan: https://polona.pl/item/do-pracy-hymn-uroczysty-na-chor-meski-uklad-na-chor-i-fortepian,NDU5Mzc0NDc/0 @EN{Scan on Polona} @PL{Skany w portalu Polona}
!!!ONB-nifc:
!!!AIN: 1 bass 1 tenor
!!!key: D
**kern	**dynam	**kern	**dynam	**kern	**text	**dynam	**kern	**text	**text	**dynam
*part4	*part4	*part3	*part3	*part2	*part2	*part2	*part1	*part1	*part1	*part1
*staff4	*	*staff3	*	*staff2	*staff2	*	*staff1	*staff1	*staff1	*
*I"Orkiestra.	*	*I"Orkiestra.	*	*I"Basy.	*	*	*I"Tenory.	*	*	*
*I'Orch.	*	*I'Orch.	*	*I'B.	*	*	*I'T.	*	*	*
*	*	*	*	*Ibass	*	*	*Itenor	*	*	*
*I	*	*ICvox	*	*ICvox	*	*	*ICvox	*	*	*
*IGacmp	*	*I	*	*	*	*	*	*	*	*
*clefF4	*	*clefG2	*	*clefF4	*	*	*clefG2	*	*	*
*k[f#c#]	*	*k[f#c#]	*	*k[f#c#]	*	*	*k[f#c#]	*	*	*
*D:	*	*D:	*	*D:	*	*	*D:	*	*	*
*M3/4	*	*M3/4	*	*M3/4	*	*	*M3/4	*	*	*
=1	=1	=1	=1	=1	=1	=1	=1	=1	=1	=1
*	*	*^	*	*	*	*	*	*	*	*
!	!	!	!	!	!	!	!	!LO:TX:a:Bi:t=Moderato quasi Maestoso.	!	!	!
[2.BBB/ [2.BB	.	[2.b/	2B\	fp	2.r	.	.	2.r	.	.	.
.	.	.	8.c#\L	.	.	.	.	.	.	.	.
.	.	.	(16d\Jk	.	.	.	.	.	.	.	.
=2	=2	=2	=2	=2	=2	=2	=2	=2	=2	=2	=2
2BBB/] 2BB]	.	2b/]	4c#\	.	2.r	.	.	2.r	.	.	.
.	.	.	4B\)	.	.	.	.	.	.	.	.
4EE/ 4E	.	4c#/ 4g 4b 4cc#	4rcyy	<	.	.	.	.	.	.	.
*	*	*v	*v	*	*	*	*	*	*	*	*
=3	=3	=3	=3	=3	=3	=3	=3	=3	=3	=3
4BBB/ 4BB	.	2d/ 2f# 2b 2dd	.	2.r	.	.	2.r	.	.	.
4BB\ 4B	.	.	.	.	.	.	.	.	.	.
4GG\ 4G	.	4e/ 4a 4b 4ee	[	.	.	.	.	.	.	.
=4	=4	=4	=4	=4	=4	=4	=4	=4	=4	=4
4EE/ 4E	.	4g/ 4b 4cc# 4gg	.	2.r	.	.	2.r	.	.	.
4FF#/ 4F#	.	4f#/ 4a#X 4cc# 4ff#	.	.	.	.	.	.	.	.
4GG/ 4G	.	4e#X/ 4b 4cc# 4ee#X	.	.	.	.	.	.	.	.
=5	=5	=5	=5	=5	=5	=5	=5	=5	=5	=5
*	*	*^	*	*	*	*	*	*	*	*
4.FF#/ 4.F#	.	4f#/ 4a#X 4cc# 4ff#	4rcyy	.	2.r	.	.	2.r	.	.	.
.	.	4c#/ 4f# 4a# 4cc#	2f#\ 2a#	sfz	.	.	.	.	.	.	.
8EE/ 8E	.	.	.	.	.	.	.	.	.	.	.
4DD/ 4D	.	8.d/L 8.dd	.	>	.	.	.	.	.	.	.
.	.	16c#/Jk 16cc#	.	.	.	.	.	.	.	.	.
=6	=6	=6	=6	=6	=6	=6	=6	=6	=6	=6	=6
*	*	*	*^	*	*	*	*	*	*	*	*
2GG/ 2G	.	2B/ 2d 2g 2b	2rcyy	2ryy	]	2.r	.	.	2.r	.	.	.
4DD/ 4D	.	8.dd^/L	4f#\ 4a#X	8.d\L	.	.	.	.	.	.	.	.
!LO:LB:g=original	!	!	!	!	!	!	!	!	!	!	!	!
.	.	16cc#/Jk	.	16c#\Jk	.	.	.	.	.	.	.	.
!	!	!LO:LB:g=original	!	!LO:LB:g=original	!	!	!	!	!	!	!	!
*	*	*	*v	*v	*	*	*	*	*	*	*	*
=7	=7	=7	=7	=7	=7	=7	=7	=7	=7	=7	=7
2GG/ 2G	.	2B/ 2d 2g 2b	2rcyy	.	2.r	.	.	2.r	.	.	.
!	!	!LO:TX:b:i:t=poco	!	!	!	!	!	!	!	!	!
4FF#/ 4F#	.	8.B/L 8.b	4d#X\ 4g	<	.	.	.	.	.	.	.
.	.	16B/Jk 16b	.	.	.	.	.	.	.	.	.
=8	=8	=8	=8	=8	=8	=8	=8	=8	=8	=8	=8
4EE/ 4E	.	4.B/ 4.e 4.g 4.b	2rcyy	[	2.r	.	.	2.r	.	.	.
4DD/ 4D	.	.	.	.	.	.	.	.	.	.	.
.	.	8B/ 8b	.	.	.	.	.	.	.	.	.
4CC#/ 4C#	.	8A/L 8a	4e\	.	.	.	.	.	.	.	.
.	.	8G/J 8g	.	.	.	.	.	.	.	.	.
*	*	*v	*v	*	*	*	*	*	*	*	*
=9	=9	=9	=9	=9	=9	=9	=9	=9	=9	=9
2FF#/ 2C#	.	2F#/ 2A#X 2c# 2f#	.	2.r	.	.	2.r	.	.	.
8.AA#X/L	.	4E#X/ 4A# 4c# 4e#X	.	.	.	.	.	.	.	.
16GG#X/Jk	.	.	.	.	.	.	.	.	.	.
=10	=10	=10	=10	=10	=10	=10	=10	=10	=10	=10
2FF#/	.	2F#/ 2A#X 2c# 2f#	.	2.r	.	.	2.r	.	.	.
8.AAA#X/L 8.AA#X	.	4e#X\ 4a#X 4cc# 4ee#X	p	.	.	.	.	.	.	.
16GGG#X/Jk 16GG#X	.	.	.	.	.	.	.	.	.	.
=11	=11	=11	=11	=11	=11	=11	=11	=11	=11	=11
4FFF#/ 4FF#	.	2f#/ 2a#X 2cc# 2ff#	<	2.r	.	.	2.r	.	.	.
4FF#/ 4F#	.	.	.	.	.	.	.	.	.	.
[4EE/ [4E	.	8.f#/L 8.ff#	.	.	.	.	.	.	.	.
.	.	16f#/Jk 16ff#	[	.	.	.	.	.	.	.
=12	=12	=12	=12	=12	=12	=12	=12	=12	=12	=12
*	*	*^	*	*	*	*	*	*	*	*
*	*	*	*^	*	*	*	*	*	*	*	*
4EE/] 4E]	.	[2.ff#/	4.f#\	2ryy	.	2.r	.	.	2.r	.	.	.
!	!	!LO:LB:g=original	!	!	!LO:LB:g=original	!	!	!LO:LB:g=original	!	!	!	!
4DD/ 4D	.	.	.	.	.	.	.	.	.	.	.	.
.	.	.	8f#\	.	>	.	.	.	.	.	.	.
4CC#/ 4C#	.	.	8g#X\L	4ee\	.	.	.	.	.	.	.	.
!LO:LB:g=original	!	!	!	!	!	!	!	!	!	!	!	!
.	.	.	8a#X\J	.	]	.	.	.	.	.	.	.
!	!	!	!LO:LB:g=original	!	!	!	!	!	!	!	!	!
*	*	*	*v	*v	*	*	*	*	*	*	*	*
=13	=13	=13	=13	=13	=13	=13	=13	=13	=13	=13	=13
*	*	*	*	*	*^	*	*	*^	*	*	*
4BBB/ 4BB	.	4ff#/]	4b\ 4dd	.	2BB/	2BB\	.	.	2b/	2b\	Dłu-	.	mf
4r	.	4r	4rcyy	.	.	.	.	.	.	.	.	.	.
4r	.	4r	4rcyy	.	8.C#/	8.C#\	.	.	8.cc#/	8.cc#\	-go	.	.
.	.	.	.	.	16D/	16D\	.	.	16dd/	16dd\	na	.	.
*	*	*v	*v	*	*	*	*	*	*	*	*	*	*
=14	=14	=14	=14	=14	=14	=14	=14	=14	=14	=14	=14	=14
2.r	.	2.r	.	4C#/	4C#\	.	.	4cc#/	4cc#\	na-	.	.
.	.	.	.	4BB/	4BB\	.	.	4b/	4b\	-sze	.	<
.	.	.	.	4G/	4E\	.	.	4cc#/	4b\	rzu-	.	.
=15	=15	=15	=15	=15	=15	=15	=15	=15	=15	=15	=15	=15
2.r	.	2.r	.	2F#/	2BB\	.	.	2dd/	2b\	-ca-	.	[
.	.	.	.	4B/	4G\	.	.	4ee/	4cc#\	-ła	.	.
=16	=16	=16	=16	=16	=16	=16	=16	=16	=16	=16	=16	=16
2.r	.	2.r	.	4B/	4E\	.	.	4gg/	4cc#\	ni-	.	.
.	.	.	.	4B/	4F#\	.	.	4ff#/	4cc#\	-wy	.	.
.	.	.	.	4B/	4G\	.	.	4ee#X/	4cc#\	Bez-	.	f
=17	=17	=17	=17	=17	=17	=17	=17	=17	=17	=17	=17	=17
2.r	.	2.r	.	(2A#X/	(2F#\	.	.	2ff#/	2cc#\	-wła-	.	.
.	.	.	.	8.c#/)	8.An\)	.	.	4cc#/	4cc#\	-dna	.	.
.	.	.	.	16B/	16G\	.	.	.	.	.	.	.
=18	=18	=18	=18	=18	=18	=18	=18	=18	=18	=18	=18	=18
2.r	.	2.r	.	(2A#X/	(2F#\	.	.	2ff#/	2cc#\	roz-	.	.
!LO:PB:g=original	!	!LO:PB:g=original	!	!	!	!	!	!	!	!	!	!
.	.	.	.	8.c#/)	8.A#\)	.	.	4ee#X/	4cc#\	-pacz	.	.
!	!	!	!	!	!	!	!	!LO:PB:g=original	!LO:PB:g=original	!	!	!
.	.	.	.	16B/	16G#X\	.	.	.	.	.	.	.
!	!	!	!	!LO:PB:g=original	!LO:PB:g=original	!	!	!	!	!	!	!
=19	=19	=19	=19	=19	=19	=19	=19	=19	=19	=19	=19	=19
2.r	.	2.r	.	(4A#X/	(8F#\L	.	.	(4ff#/	(8dd\L	chmur-	.	.
.	.	.	.	.	8E\J	.	.	.	8cc#\J	.	.	.
.	.	.	.	8B/L	4D\)	.	>	8gg/L	4b\)	.	.	.
.	.	.	.	8An/J)	.	.	.	8ff#/J)	.	.	.	.
.	.	.	.	8G/	8E\	.	.	8ee/	8b\	-ne	.	.
.	.	.	.	8G/	8G\	.	.	8b/	8b\	swe	.	.
=20	=20	=20	=20	=20	=20	=20	=20	=20	=20	=20	=20	=20
4r	.	4r	.	4F#/	4F#\	.	]	4dd/	4a#X\	cie-	.	.
4FF#/ 4F#	.	4r	p	4F#/	4F#\	.	.	4cc#/	4a#\	-nie	.	.
[4EE/ [4E	.	8.F#/L 8.f#	.	4r	4rEEyy	.	.	4r	4rcyy	.	.	.
.	.	16F#/Jk 16f#	.	.	.	.	.	.	.	.	.	.
=21	=21	=21	=21	=21	=21	=21	=21	=21	=21	=21	=21	=21
*	*	*^	*	*	*	*	*	*	*	*	*	*
*	*	*	*^	*	*	*	*	*	*	*	*	*	*
4EE/] 4E]	.	[2.f#/	4.F#\	2ryy	.	4r	4rEEyy	.	.	4r	4rcyy	.	.	.
(4DD/ 4D	.	.	.	.	.	4r	4rEEyy	.	.	4r	4rcyy	.	.	.
.	.	.	8F#\	.	.	.	.	.	.	.	.	.	.	.
4CC#/ 4C#	.	.	8G#X\L	4e\	.	4F#/	4F#\	Zwy-	.	4f#/	4f#\	Zwy-	.	p
.	.	.	8A#X\J	.	.	.	.	.	.	.	.	.	.	.
*	*	*v	*v	*v	*	*	*	*	*	*	*	*	*	*
=22	=22	=22	=22	=22	=22	=22	=22	=22	=22	=22	=22	=22
4BBB/) 4BB	.	4B/ 4d 4f#]	.	(4B/	4B\	-cię-	.	(2b/	2b\	-cię-	.	.
4r	.	4r	.	4A/)	4A\	.	.	.	.	.	.	.
4r	.	4r	.	4G#X/	4G#\	-żył	.	8cc#/)	8cc#\	.	.	.
.	.	.	.	.	.	.	.	8dd/	8dd\	-żył	.	.
=23	=23	=23	=23	=23	=23	=23	=23	=23	=23	=23	=23	=23
*	*	*^	*	*	*	*	*	*	*	*	*	*
4r	.	4r	4rcyy	.	4.A/	4.A\	w koń-	.	8cc#/	8cc#\	w koń-	.	.
.	.	.	.	.	.	.	.	.	8b/	8b\	-cu	.	.
2DD/ 2D	.	[2ee/	[2e\ 2b	.	.	.	.	.	[2ee/	2ee\	słoń-	.	.
.	.	.	.	.	8G#X/	8G#\	-cu	.	.	.	.	.	.
.	.	.	.	.	8F#/L	8F#\L	blask	.	.	.	.	.	.
.	.	.	.	.	8E/J	8E\J	.	.	.	.	.	.	.
=24	=24	=24	=24	=24	=24	=24	=24	=24	=24	=24	=24	=24	=24
*	*	*	*^	*	*	*	*	*	*	*	*	*	*
!	!LO:DY:a	!	!	!	!	!	!	!	!	!	!	!	!	!
8CC#/L 8C#	<	4ee/]	4.e\]	2a/	.	(4.Gn/	4.G\	słoń-	.	4ee/]	4ee\	.	.	.
8BBB/J 8BB	.	.	.	.	.	.	.	.	.	.	.	.	.	.
2AAA/ 2AA	[[	(4dd/	.	.	.	.	.	.	.	4dd/	4dd\	-ca	.	.
!LO:LB:g=original	!	!LO:LB:g=original	!	!	!	!	!	!	!	!	!	!	!	!
.	.	.	8f#\	.	.	8F#/)	8F#\	.	.	.	.	.	.	.
.	.	4cc#/)	4g\	4ryy	.	8E/L	8E\L	-ca	.	4cc#/	4cc#\	blask	.	.
!	!	!LO:LB:g=original	!LO:LB:g=original	!	!	!	!	!	!	!LO:LB:g=original	!LO:LB:g=original	!	!	!
.	.	.	.	.	.	8G/J	8G\J	.	.	.	.	.	.	.
!	!	!	!	!	!	!LO:LB:g=original	!LO:LB:g=original	!	!	!	!	!	!	!
*	*	*v	*v	*v	*	*	*	*	*	*	*	*	*	*
=25	=25	=25	=25	=25	=25	=25	=25	=25	=25	=25	=25	=25
*^	*	*	*	*	*	*	*	*	*	*	*	*
!	!	!	!	!	!	!	!	!	!	!	!	!	!LO:DY:a
4DD/ 4D	4rEEyy	.	4f#/ 4a 4ff#	.	(4F#/	4F#\	.	.	2dd/	2dd\	ży-	.	<
4D/ 4A	4D\	.	4f#/ 4a 4dd	.	4D/)	4D\	.	.	.	.	.	.	.
4r	4rEEyy	.	4r	.	4A/	4A\	.	.	4ee/	4cc#\	-wy	.	[
*v	*v	*	*	*	*	*	*	*	*	*	*	*	*
=26	=26	=26	=26	=26	=26	=26	=26	=26	=26	=26	=26	=26
4r	.	4r	.	2A/	2D\	.	.	2ff#/	2dd\	Mrok	.	.
4DD/ 4D	.	4f#/ 4dd 4ff#	f	.	.	.	.	.	.	.	.	.
!	!	!	!	!	!	!	!LO:DY:a	!	!	!	!	!LO:DY:a
4r	.	4r	.	8B/	8BB\	.	f	8aa/	8dd\	roz-	.	f
.	.	.	.	8B/	8BB\	.	.	8gg#X/	8dd\	-pę-	.	.
=27	=27	=27	=27	=27	=27	=27	=27	=27	=27	=27	=27	=27
2.r	.	2.r	.	4A/	4C#\	.	.	4ff#/	4cc#\	-dzi-	.	.
.	.	.	.	4G#X/	8E\L	.	.	4ee/	4b\	-ły	.	.
.	.	.	.	.	8GG#X\J	.	.	.	.	.	.	.
.	.	.	.	4F#/	8AA\L	.	.	4dd/	4a\	pro-	.	.
.	.	.	.	.	8BB\J	.	.	.	.	.	.	.
=28	=28	=28	=28	=28	=28	=28	=28	=28	=28	=28	=28	=28
*	*	*^	*	*	*	*	*	*	*	*	*	*
!	!	!	!	!	!	!	!	!	!	!	!	!	!LO:DY:a
4r	.	4r	4rcyy	.	(2.F#/	[2.C#\	.	.	[2.cc#/	2g#X\	-mie-	.	>
[2CC#/ [2C#	.	(2c#/ 2cc#	(4g#X\	p	.	.	.	.	.	.	.	.	.
.	.	.	4d#X\	>	.	.	.	.	.	8a\L	.	.	.
.	.	.	.	.	.	.	.	.	.	8b\J	.	.	.
=29	=29	=29	=29	=29	=29	=29	=29	=29	=29	=29	=29	=29	=29
4CC#/] 4C#]	.	8cc#/L	4c#\) 4e#X	.	4E#X/)	4C#\]	.	.	4cc#/]	8a\L	.	.	]
.	.	8b/J	.	.	.	.	.	.	.	8g#X\J	.	.	.
4FF#/ 4F#	.	4a/)	[4c#\ 4f#	.	4F#/	4F#\	.	.	4f#/	4f#\	-nie	.	.
4EE/ 4E	.	8.g/L	4c#\] 4e#	.	4r	4rEEyy	.	.	4r	4rcyy	.	.	.
.	.	16a/Jk	.	]	.	.	.	.	.	.	.	.	.
*	*	*	*	*	*v	*v	*	*	*	*	*	*	*
*	*	*	*	*	*	*	*	*v	*v	*	*	*
=30	=30	=30	=30	=30	=30	=30	=30	=30	=30	=30	=30
4.DD/ 4.D	.	4b/	2B\ 2f#	.	2.r	.	.	2.r	.	.	.
!	!	!	!	!	!LO:LB:g=original	!	!	!LO:LB:g=original	!	!	!
.	.	4f#/	.	.	.	.	.	.	.	.	.
8CC#/ 8C#	.	.	.	.	.	.	.	.	.	.	.
8BBB/L 8BB	.	4f#/ 4a	4d\	.	.	.	.	.	.	.	.
!	!	!LO:LB:g=original	!	!	!	!	!	!	!	!	!
8DD/J 8D	.	.	.	.	.	.	.	.	.	.	.
!LO:LB:g=original	!	!	!	!	!	!	!	!	!	!	!
=31	=31	=31	=31	=31	=31	=31	=31	=31	=31	=31	=31
4.EE/ 4.E	.	4e/ 4g#X	2B\	<	2.r	.	.	2.r	.	.	.
.	.	4f#/ 4a	.	.	.	.	.	.	.	.	.
8DD/ 8D	.	.	.	.	.	.	.	.	.	.	.
8CC#/L 8C#	.	4d/ 4g# 4b	4rcyy	.	.	.	.	.	.	.	.
8BBB/J 8BB	.	.	.	.	.	.	.	.	.	.	.
*	*	*v	*v	*	*	*	*	*	*	*	*
=32	=32	=32	=32	=32	=32	=32	=32	=32	=32	=32
2AAA/ 2AA	.	8.c#/L 8.a 8.cc#	.	2.r	.	.	2.r	.	.	.
.	.	16d/Jk 16b 16dd	.	.	.	.	.	.	.	.
.	.	4e/ 4cc# 4ee	[	.	.	.	.	.	.	.
4GGG/ 4GG	.	4e/ 4cc# 4ee	f	.	.	.	.	.	.	.
=33	=33	=33	=33	=33	=33	=33	=33	=33	=33	=33
*	*	*^	*	*	*	*	*	*	*	*
4FFF#/ 4FF#	.	4.a/ 4.aa	8ee\L	.	2.r	.	.	2.r	.	.	.
.	.	.	8cc#\J	.	.	.	.	.	.	.	.
4BBB/ 4BB	.	.	2dd\	.	.	.	.	.	.	.	.
.	.	8a/L 8aa	.	<	.	.	.	.	.	.	.
8EEE/L 8EE	.	8g/ 8gg	.	.	.	.	.	.	.	.	.
8FFF#/J 8FF#	.	8f#/J 8ff#	.	.	.	.	.	.	.	.	.
=34	=34	=34	=34	=34	=34	=34	=34	=34	=34	=34	=34
4GGG/ 4GG	.	8e/L 8ee	4b\	.	2.r	.	.	2.r	.	.	.
.	.	8d/ 8dd	.	.	.	.	.	.	.	.	.
4AAA/ 4AA	.	8c#/ 8a 8cc#	2rc	.	.	.	.	.	.	.	.
.	.	8e/J 8g 8ee	.	.	.	.	.	.	.	.	.
8.BBB/L 8.BB	.	8.d/L 8.f# 8.dd	.	.	.	.	.	.	.	.	.
16GGG/Jk 16GG	.	16d/Jk 16g 16b	.	[	.	.	.	.	.	.	.
=35	=35	=35	=35	=35	=35	=35	=35	=35	=35	=35	=35
*	*	*	*^	*	*	*	*	*	*	*	*
[2.AAA/ [2.AA	.	(2.a/	4d\	2e/	>	2.r	.	.	2.r	.	.	.
.	.	.	4c#\	.	.	.	.	.	.	.	.	.
.	.	.	4B\ 4d	8f#/L	.	.	.	.	.	.	.	.
.	.	.	.	8g/J	.	.	.	.	.	.	.	.
=36	=36	=36	=36	=36	=36	=36	=36	=36	=36	=36	=36	=36
*	*	*	*	*	*	*^	*	*	*^	*	*	*
4AAA/] 4AA]	.	[4a/)	8A\L	4f#\	]	4r	4rEEyy	.	.	4r	4rcyy	.	.	.
.	.	.	8G\J 8e	.	.	.	.	.	.	.	.	.	.	.
8DD/ 8D	.	8a/]	8F#\ 8d	4ryy	.	4r	4rEEyy	.	.	4r	4rcyy	.	.	p
8r	.	8r	8rcyy	.	.	.	.	.	.	.	.	.	.	.
4r	.	4r	[4rcyy	4f#/yy	.	4F#/	4F#\	.	.	4f#/	4f#\	To	.	.
!LO:PB:g=original	!	!LO:PB:g=original	!	!	!LO:PB:g=original	!	!LO:PB:g=original	!	!	!LO:PB:g=original	!LO:PB:g=original	!	!	!
*	*	*	*v	*v	*	*	*	*	*	*	*	*	*	*
=37	=37	=37	=37	=37	=37	=37	=37	=37	=37	=37	=37	=37	=37
4r	.	4r	4rc]	.	2A/	[2A\	.	.	2a/	[2a\	myśl	.	.
(4F#\ 4A	.	(4a/	[2cn\	p	.	.	.	.	.	.	.	.	.
4E\ 4A	.	4g/	.	.	8A/	8A\]	.	.	8a/	8a\]	.	.	.
.	.	.	.	.	8B/	8B\	.	.	8b/	8b\	jak	.	.
=38	=38	=38	=38	=38	=38	=38	=38	=38	=38	=38	=38	=38	=38
*^	*	*	*^	*	*	*	*	*	*	*	*	*	*
!	!	!	!	!	!	!	!	!	!	!	!LO:TX:a:i:t=poco	!	!	!	!
4A/)	4D#X\	.	4f#/)	4c\]	4ryy	.	2cn/	2c\	.	.	2ccn/	2cc\	słoń-	.	.
[2c#/	(4A\	.	(4ff#/	[2ccn/	4f#\	<	.	.	.	.	.	.	.	.	.
!	!	!	!	!	!	!	!	!	!	!	!	!	!	!	!LO:DY:a
.	4G\	.	4g\ [4ee	.	4ryy	.	4c/	4c\	.	.	4cc/	4cc\	-ce	.	<
*	*	*	*	*v	*v	*	*	*	*	*	*	*	*	*	*
=39	=39	=39	=39	=39	=39	=39	=39	=39	=39	=39	=39	=39	=39	=39
2c#\]	2F#\)	.	4ee/]	2a\ 2cc]	.	4.cn/	4.c\	.	.	4.ccn/	4.cc\	co	.	.
.	.	.	4dd#X/)	.	[	.	.	.	.	.	.	.	.	.
.	.	.	.	.	.	8B/	8B\	.	.	8b/	8b\	sił	.	.
4r	4rEEyy	.	4r	4rcyy	.	8A/	8A\	.	.	8a/	8a\	o-	.	[
.	.	.	.	.	.	8A/	8G\	.	.	8cc/	8cc\	-gniem	.	.
*v	*v	*	*	*	*	*	*	*	*	*	*	*	*	*
=40	=40	=40	=40	=40	=40	=40	=40	=40	=40	=40	=40	=40	=40
!	!	!	!	!	!	!	!	!	!	!	!	!	!LO:DY:a
4r	.	4r	4rcyy	.	4.A/	4.F#\	.	.	4.dd#X/	4.ccn\	wre	.	<
((2F#\ [2cn 2d#X	.	(4ccn\ 4cccn	2dd#X/	<	.	.	.	.	.	.	.	.	.
.	.	.	.	.	8A/	8F#\	.	.	8dd#/	8cc\	Ku	.	.
.	.	4a\ 4aa	.	.	8A/	8F#\	.	.	8dd#/	8cc\	nam	.	.
.	.	.	.	.	8A/	8F#\	.	.	8dd#/	8cc\	o-	.	[
*	*	*v	*v	*	*	*	*	*	*	*	*	*	*
=41	=41	=41	=41	=41	=41	=41	=41	=41	=41	=41	=41	=41
4G\)) 4c] 4e	.	4g\) 4ee 4gg	[	4G/	4G\	.	.	4ee/	4ccn\	-bli-	.	f
4r	.	4r	.	4G/	4G\	.	.	4dd#X/	4b\	-cze	.	.
4r	.	4r	.	4G/	4G\	.	.	4ee/	4cc\	pło-	.	.
!LO:LB:g=original	!	!LO:LB:g=original	!	!	!LO:LB:g=original	!	!	!LO:LB:g=original	!LO:LB:g=original	!	!	!
=42	=42	=42	=42	=42	=42	=42	=42	=42	=42	=42	=42	=42
2.r	.	2.r	.	4B-X/	4G\	.	.	4gg/	4cc#X\	-mien-	.	.
.	.	.	.	4A/	4G\	.	.	4ffn/	4dd\	-ne	.	.
.	.	.	.	4G/	4G\	.	.	4dd/	4b\	o-	.	.
=43	=43	=43	=43	=43	=43	=43	=43	=43	=43	=43	=43	=43
*	*	*^	*	*	*	*	*	*	*	*	*	*
4r	.	4r	4rcyy	.	4G/	4Cn\	.	.	4ffn/	4b\	-bra-	.	.
!	!	!	!	!LO:DY:a	!	!	!	!	!	!	!	!	!
4C#\	.	(4g/	[2cn\ [2e	p <	4G/	4C\	.	.	4ee/	4ccn\	-ca	.	.
4BB-X\ 4B-X	.	4g#X/	.	.	4r	4rEEyy	.	.	4r	4rcyy	.	.	.
*	*	*	*	*	*v	*v	*	*	*	*	*	*	*
*	*	*	*	*	*	*	*	*v	*v	*	*	*
=44	=44	=44	=44	=44	=44	=44	=44	=44	=44	=44	=44
*^	*	*	*	*	*	*	*	*	*	*	*
4E/ [4A	(8AA\L	.	8a/L	4c\] 4e]	[	2.r	.	.	2.r	.	.	.
.	8GG\J	.	8b-X/J	.	.	.	.	.	.	.	.	.
4Fn/ 4A]	4FFn\)	.	4ccn/)	(8cn\L 8e-X	.	.	.	.	.	.	.	.
.	.	.	.	8g\	.	.	.	.	.	.	.	.
!	!	!	!	!	!LO:DY:a	!	!	!	!	!	!	!
(4A/	4F\	.	(4cc#X/	8f#\ 8a	>	.	.	.	.	.	.	.
.	.	.	.	8e-\J)	.	.	.	.	.	.	.	.
*v	*v	*	*	*	*	*	*	*	*	*	*	*
*	*	*v	*v	*	*	*	*	*	*	*	*
=45	=45	=45	=45	=45	=45	=45	=45	=45	=45	=45
*	*	*	*	*^	*	*	*^	*	*	*
4BB-X\) 4Fn 4B-X	.	4d/) 4fn 4dd	]	4r	4rEEyy	.	.	4r	4rcyy	.	.	.
!	!	!LO:TX:b:i:t=dolce	!	!	!	!	!	!LO:TX:a:i:t=dolce	!	!	!	!
4BB-\ 4D 4F [4B-	.	(8dd/L 8ddd	.	4Fn/	4BB-X\	.	.	4dd/	4b-X\	A	.	.
.	.	8ccn/ 8cccn	.	.	.	.	.	.	.	.	.	.
4BB-\ 4D 4F#X 4B-]	.	8b-X/ 8bb-X	.	8F#X/	8BB-\	.	.	8dd/	8b-\	ja-	.	.
.	.	8dd/J 8ddd	.	8F#/	8BB-\	.	.	8dd/	8b-\	-ko	.	.
=46	=46	=46	=46	=46	=46	=46	=46	=46	=46	=46	=46	=46
[4BB-X\ [4E [4G	.	4g/) 4gg	.	4G/	4BB-X\	.	.	4ee-X/	4b-X\	dzie-	.	.
8BB-\] 8E] 8G]	.	(8e-X/L	.	4E-X/	4BB-\	.	.	4g/	4g\	-cię	.	.
8r	.	8d/	.	.	.	.	.	.	.	.	.	.
4r	.	8cn/	.	4r	4rEEyy	.	.	4r	4rcyy	.	.	.
!LO:LB:g=original	!	!	!	!LO:LB:g=original	!	!	!	!LO:LB:g=original	!	!	!	!
.	.	[8e-/J)	.	.	.	.	.	.	.	.	.	.
!	!	!LO:LB:g=original	!	!	!	!	!	!	!	!	!	!
=47	=47	=47	=47	=47	=47	=47	=47	=47	=47	=47	=47	=47
*	*	*^	*	*	*	*	*	*	*	*	*	*
4r	.	4raa]	(4g\	.	8r	8rEEyy	.	.	8r	8rcyy	.	.	.
!	!	!	!	!	!	!	!	!	!	!	!	!	!LO:DY:a
.	.	.	.	.	8A/	8BB-X\	.	.	8ee-X/	8ccn\	jak	.	<
4BB-X\ 4Fn 4A	.	(8ee-X/L 8eee-X	4fn\)	<	4A/	4BB-\	.	.	4ee-/	4cc\	dzie-	.	.
.	.	8dd/ 8ddd	.	.	.	.	.	.	.	.	.	.	.
4BB-\ 4F 4A	.	8ccn/ 8cccn	4ryy	.	8A/	8BB-\	.	.	8ee-/	8cc\	-cię	.	.
.	.	8ee-/J 8eee-	.	[	8A/	8BB-\	.	.	8ee-/	8cc\	ku	.	[
=48	=48	=48	=48	=48	=48	=48	=48	=48	=48	=48	=48	=48	=48
!	!	!	!	!	!	!	!	!	!	!	!	!	!LO:DY:a
[4BB-X\ [4D [4B-X	.	((4gg/) 4ggg	4rdd	>	4B-X/	4BB-X\	.	.	4ggn/	4dd\	mat-	.	>
8BB-\] 8D] 8B-]	.	8ffn/)) 8fffn	(8dd\L	.	4B-/	4BB-\	.	.	4ffn/	4dd\	-ce	.	]
8r	.	8raa	8ccn\	] p	.	.	.	.	.	.	.	.	.
4r	.	4raa	8b-X\	.	4B-/	4B-\	.	p	4b-X/	4b-\	tak	.	p
.	.	.	8cc\J)	.	.	.	.	.	.	.	.	.	.
*	*	*v	*v	*	*	*	*	*	*	*	*	*	*
=49	=49	=49	=49	=49	=49	=49	=49	=49	=49	=49	=49	=49
4r	.	8.dd-X\L	.	2B-X/	2B-\	.	<	2b-X/	2b-\	pra-	.	.
.	.	16ee-X\Jk	.	.	.	.	.	.	.	.	.	.
(4B-X\ 4d-X	.	4ffn,\	.	.	.	.	.	.	.	.	.	.
!	!	!	!LO:DY:a	!	!	!	!	!	!	!	!	!
4A-X\) 4cn	.	8.fn/L	p	8A-X/	8A-\	.	[	8ccn/	8cc\	-ca	.	.
.	.	.	.	8A-/	8A-\	.	.	8cc/	8cc\	Do	.	.
.	.	16f/Jk	.	.	.	.	.	.	.	.	.	.
=50	=50	=50	=50	=50	=50	=50	=50	=50	=50	=50	=50	=50
[4G-X\ [4B-X [4d-X	.	[4b-X/	.	2B-X/	2G-X\	.	.	2dd-X/	2dd-\	te-	.	.
8G-\] 8B-] 8d-]	.	(8b-/L]	.	.	.	.	.	.	.	.	.	.
8r	.	8an/ 8aan	.	.	.	.	.	.	.	.	.	.
4r	.	8b-/ 8bb-X	.	4B-/	4G-\	.	.	4ee-X/	4ccn\	-go	.	.
.	.	8ccn/J 8cccn	.	.	.	.	.	.	.	.	.	.
=51	=51	=51	=51	=51	=51	=51	=51	=51	=51	=51	=51	=51
!	!	!	!LO:DY:a	!	!	!	!	!	!	!	!	!
4r	<	8.dd-X\L) 8.ddd-X	<	4.B-X/	4.Fn\	.	.	4.ffn/	4.dd-X\	słoń-	.	.
.	.	(16ee-X\Jk 16eee-X	.	.	.	.	.	.	.	.	.	.
4Fn'\ 4B-X 4d-X [4fn	.	4ffn\) 4fffn	.	.	.	.	.	.	.	.	.	.
.	.	.	.	8B-/	8F\	.	.	8ff/	8dd-\	-ca	.	.
4F'\ 4B- 4d- 4f]	[[	4r	[[	8B-/	8F\	.	.	8ff/	8dd-\	wznio-	.	.
!LO:PB:g=original	!	!LO:PB:g=original	!	!	!	!	!	!	!	!	!	!
.	.	.	.	8B-/	8F\	.	.	8ff/	8dd-\	-sła	.	.
!	!	!	!	!LO:PB:g=original	!	!	!	!LO:PB:g=original	!LO:PB:g=original	!	!	!
=52	=52	=52	=52	=52	=52	=52	=52	=52	=52	=52	=52	=52
[4En\ [4A#X [4c#X [4f#X	.	4r	.	[2A#X/	[2En\	.	.	[2ff#X/	[2cc#X\	dło-	.	f
8E\] 8A#] 8c#] 8f#]	.	8a#X/L 8aa#X	.	.	.	.	.	.	.	.	.	.
8r	.	8g#X/ 8gg#X	<	.	.	.	.	.	.	.	.	.
4r	.	8f#/ 8ff#	.	8A#/]	8E\]	.	.	8ff#/]	8cc#\]	.	.	.
!	!	!LO:TX:b:i:t=molto	!	!	!	!	!	!	!	!	!	!
.	.	8a#/J 8aa#	[	8A#/	8D\	.	.	8ff#/	8dd\	-nie	.	.
=53	=53	=53	=53	=53	=53	=53	=53	=53	=53	=53	=53	=53
*	*	*^	*	*	*	*	*	*	*	*	*	*
4r	.	8cc#\L 8ccc#	4rcyy	.	2A#X/	2C#X\	.	.	2gg/	2ee\	swe	.	.
.	.	8dd\ 8ddd	.	.	.	.	.	.	.	.	.	.	.
8GG/L 8G	.	8ee\ 8eee	2aa#X/ 2ccc#	<	.	.	.	.	.	.	.	.	.
8FF#/ 8F#	.	((8ff#\J 8fff#	.	.	.	.	.	.	.	.	.	.	.
8EE/ 8E	.	[4gg\)) [4ggg	.	.	4r	4rEEyy	.	.	4r	4rcyy	.	.	.
8DD/J 8D	.	.	.	.	.	.	.	.	.	.	.	.	.
*	*	*	*	*	*v	*v	*	*	*	*	*	*	*
*	*	*	*	*	*	*	*	*v	*v	*	*	*
=54	=54	=54	=54	=54	=54	=54	=54	=54	=54	=54	=54
4CC#/ 4C#	.	4gg\] 4aa 4ccc# 4ggg]	4rcyy	[ ff	2.r	.	.	2.r	.	.	.
4FF#/ 4F#	.	4aa#X/	8ff#\L 8fff#	.	.	.	.	.	.	.	.
.	.	.	8ee\ 8eee	.	.	.	.	.	.	.	.
4FFF#/ 4FF#	.	4ff#/ 4aa#	8dd\ 8ddd	>	.	.	.	.	.	.	.
.	.	.	8cc#\J 8ccc#	.	.	.	.	.	.	.	.
=55	=55	=55	=55	=55	=55	=55	=55	=55	=55	=55	=55
8GGG/L 8GG	.	4dd/	8b\L 8bb	.	2.r	.	.	2.r	.	.	.
8BBB/ 8BB	.	.	8a\ 8aa	.	.	.	.	.	.	.	.
8EE/ 8E	.	4b/	8g\ 8gg	.	.	.	.	.	.	.	.
8FF#/J 8F#	.	.	8f#\J 8ff#	.	.	.	.	.	.	.	.
8GG/L 8G	.	8e/L 8ee	4b\ 4cc#	]	.	.	.	.	.	.	.
8EE/J 8E	.	8g/J 8gg	.	.	.	.	.	.	.	.	.
=56	=56	=56	=56	=56	=56	=56	=56	=56	=56	=56	=56
4FF#/ 4F#	.	2f#/ 2b 2dd 2ff#	2rcyy	.	2.r	.	.	2.r	.	.	.
4FFF#/ 4FF#	.	.	.	.	.	.	.	.	.	.	.
4GG/ 4G	.	8.e#X^/L 8.ee#X	4b\ 4cc#	sfz	.	.	.	.	.	.	.
.	.	16e#/Jk 16ee#	.	.	.	.	.	.	.	.	.
=57	=57	=57	=57	=57	=57	=57	=57	=57	=57	=57	=57
4FF#/ 4F#	.	(4.f#/ 4.ff#	2a#X\ 2dd	>	2.r	.	.	2.r	.	.	.
!	!	!	!	!	!	!LO:LB:g=original	!	!	!LO:LB:g=original	!	!
2FFF#/ 2FF#	.	.	.	.	.	.	.	.	.	.	.
!LO:LB:g=original	!	!	!	!	!	!	!	!	!	!	!
.	.	8e/ 8ee	.	.	.	.	.	.	.	.	.
.	.	8d/L) 8dd	4f#\ 4a#	]	.	.	.	.	.	.	.
.	.	8c#/J 8cc#	.	.	.	.	.	.	.	.	.
!	!	!LO:LB:g=original	!	!	!	!	!	!	!	!	!
*	*	*v	*v	*	*	*	*	*	*	*	*
=58	=58	=58	=58	=58	=58	=58	=58	=58	=58	=58
*	*	*	*	*^	*	*	*^	*	*	*
!	!	!	!	!	!	!	!	!	!	!	!	!LO:DY:a
[2.BBB/ [2.BB	.	8B/ 8d 8f# 8b	.	2BB/	2BB\	.	.	2b/	2b\	Wznio-	.	mf
.	.	8r	.	.	.	.	.	.	.	.	.	.
.	.	4r	.	.	.	.	.	.	.	.	.	.
.	.	4r	.	8.C#/	8.C#\	.	.	8.cc#/	8.cc#\	-sła	.	.
.	.	.	.	16D/	16D\	.	.	16dd/	16dd\	swe	.	.
=59	=59	=59	=59	=59	=59	=59	=59	=59	=59	=59	=59	=59
*	*	*^	*	*	*	*	*	*	*	*	*	*
2.BBB/] 2.BB]	.	4r	4rcyy	.	(4C#/	4C#\	.	.	(4cc#/	4cc#\	dło-	.	.
.	.	[2b/	(4B\	p <	4BB/)	4BB\	.	.	4b/)	4b\	.	.	.
.	.	.	4c#\	.	4G/	4E\	.	.	4cc#/	4b\	-nie	.	.
=60	=60	=60	=60	=60	=60	=60	=60	=60	=60	=60	=60	=60	=60
!	!	!	!	!	!	!	!	!	!	!	!	!	!LO:DY:a
4BBB/ 4BB	.	4b/]	4d\)	.	2F#/	2BB\	.	.	2dd/	2b\	tę-	.	<
4BBB/ 4BB	.	(4d'/ 4f# 4b	4rcyy	.	.	.	.	.	.	.	.	.	.
4BBB/ 4BB	.	4c#'/) 4e 4b	4rcyy	[	8.B/	8.G\	.	.	8.ee/	8.cc#\	-sknie	.	.
.	.	.	.	.	16B/	16G\	.	.	16ee/	16cc#\	mi-	.	[
=61	=61	=61	=61	=61	=61	=61	=61	=61	=61	=61	=61	=61	=61
[4BBB/ [4BB	.	4g/ [4b	(4c#\	>	4B/	4E\	.	.	4gg/	4cc#\	-ło-	.	.
!	!	!	!	!	!	!	!	!	!LO:TX:a:i:t=molto espr.	!	!	!	!
8BBB/] 8BB]	.	8b/]	4d\) 4f#	.	4B/	4F#\	.	.	4ff#/	4dd\	-śnie	.	.
8r	.	8re	.	]	.	.	.	.	.	.	.	.	.
4r	.	4r	4rcyy	.	4B/	4G\	.	.	4ee#X/	4cc#\	Wy-	.	.
*	*	*v	*v	*	*	*	*	*	*	*	*	*	*
=62	=62	=62	=62	=62	=62	=62	=62	=62	=62	=62	=62	=62
4r	.	4r	.	(2A#X/	(2F#\	.	.	2ff#/	2cc#\	-rwa-	.	.
4FF#/ 4F#	.	4f#/	sfz	.	.	.	.	.	.	.	.	.
4r	.	4r	.	8.c#/)	8.An\)	.	.	4cc#/	4cc#\	-na	.	.
.	.	.	.	16B/	16G\	.	.	.	.	.	.	.
=63	=63	=63	=63	=63	=63	=63	=63	=63	=63	=63	=63	=63
4r	.	4r	.	(2A#X/	(2F#\	.	.	2ff#/	2cc#\	z wię-	.	.
4FFF#/ 4FF#	.	4f#\ 4ff#	f	.	.	.	.	.	.	.	.	.
4r	.	4r	.	8.c#/)	8.A#\)	.	.	4ee#X/	4cc#\	-zów	.	.
!LO:LB:g=original	!	!LO:LB:g=original	!	!	!	!	!	!LO:LB:g=original	!LO:LB:g=original	!	!	!
.	.	.	.	16B/	16G\	.	.	.	.	.	.	.
!	!	!	!	!LO:LB:g=original	!	!	!	!	!	!	!	!
=64	=64	=64	=64	=64	=64	=64	=64	=64	=64	=64	=64	=64
2.r	.	2.r	.	(4A#X/	(8F#\L	.	.	(4ff#/	(8dd\L	smu-	.	.
.	.	.	.	.	8E\J	.	.	.	8cc#\J	.	.	.
.	.	.	.	8B/L	4D\)	.	.	8gg/L	4b\)	.	.	.
.	.	.	.	8An/J)	.	.	.	8ff#/J)	.	.	.	.
.	.	.	.	8G/	8E\	.	>	8ee/	8b\	-tku	.	.
.	.	.	.	8G/	8G\	.	.	8b/	8b\	i	.	.
=65	=65	=65	=65	=65	=65	=65	=65	=65	=65	=65	=65	=65
*	*	*^	*	*	*	*	*	*	*	*	*	*
4r	.	4r	4rcyy	.	4F#/	4F#\	.	.	4dd/	4a#X\	złu-	.	.
4FF#/ 4F#	.	[2f#/	4A#X\ 4c#	>	4F#/	4F#\	.	]	4cc#/	4a#\	-dy	.	.
4EE/ 4E	.	.	(4An\ [4cn	.	4r	4rEEyy	.	.	4r	4rcyy	.	.	.
*	*	*	*	*	*v	*v	*	*	*	*	*	*	*
*	*	*	*	*	*	*	*	*v	*v	*	*	*
=66	=66	=66	=66	=66	=66	=66	=66	=66	=66	=66	=66
4.DD#X/ 4.D#X	.	2A/ 2f#]	4c\]	]	2.r	.	.	2.r	.	.	.
.	.	.	4B\)	.	.	.	.	.	.	.	.
8CC#/ 8C#	.	.	.	.	.	.	.	.	.	.	.
8BBB/L 8BB	.	4b\ 4ff# 4bb	4rcyy	p	.	.	.	.	.	.	.
8DD#/J 8D#	.	.	.	.	.	.	.	.	.	.	.
=67	=67	=67	=67	=67	=67	=67	=67	=67	=67	=67	=67
*	*	*	*	*	*^	*	*	*^	*	*	*
4EE/ 4E	.	[2.bb/	4g#X\ 4b 4ee	.	4B~/	4B\	spie-	p	2b/	2b\	Spie-	.	p
4r	.	.	4rff	.	4A#X~/	4A#\	-szy	.	.	.	.	.	.
4r	.	.	4rff	.	4An~/	4A\	do	.	8.cc#/	8.cc#\	-szy	.	.
.	.	.	.	.	.	.	.	.	16dd#X/	16dd#\	do	.	.
*	*	*v	*v	*	*	*	*	*	*	*	*	*	*
=68	=68	=68	=68	=68	=68	=68	=68	=68	=68	=68	=68	=68
!	!	!LO:TX:b:i:t=dolce	!	!	!	!	!	!	!	!	!	!
4r	.	4bb/]	.	(4.A/	4.A\	ce-	.	8cc#/	8cc#\	ce-	.	.
.	.	.	.	.	.	.	.	8b/	8b\	-lu	.	.
4DDn/ 4Dn	.	(4b'/ 4dd 4bb	.	.	.	.	.	[2ee/	2ee\	wzma-	.	.
.	.	.	.	8G#X/)	8G#\	.	.	.	.	.	.	.
4DD/ 4D	.	4g#X'/) 4ee 4gg#X	.	8F#/L	8F#\L	-lu	.	.	.	.	.	.
.	.	.	.	8E/J	8E\J	.	<	.	.	.	.	.
=69	=69	=69	=69	=69	=69	=69	=69	=69	=69	=69	=69	=69
*	*	*^	*	*	*	*	*	*	*	*	*	*
*	*	*	*^	*	*	*	*	*	*	*	*	*	*
4CC#/ 4C#	.	(4ee/	(4.e\	2b\	<	(4.Gn/	4.G\	wzma-	.	4ee/]	4ee\	.	.	.
4FF#/ 4F#	.	4dd#X/	.	.	.	.	.	.	.	4dd#X~/	4dd#\	-ga	.	.
.	.	.	8f#\	.	.	8F#/)	8F#\	.	.	.	.	.	.	.
4FFF#/ 4FF#	.	4a#X/) 4cc#	8gn\L	4ryy	.	8E/	8E\	-ga	.	4cc#~/	4cc#\	się	.	.
!LO:PB:g=original	!	!	!	!	!	!	!	!	!	!LO:PB:g=original	!LO:PB:g=original	!	!	!
.	.	.	8e\J)	.	[	8G/	8G\	się	[	.	.	.	.	.
!	!	!	!LO:PB:g=original	!	!	!	!	!	!	!	!	!	!	!
*	*	*v	*v	*v	*	*	*	*	*	*	*	*	*	*
=70	=70	=70	=70	=70	=70	=70	=70	=70	=70	=70	=70	=70
4BBB/ 4BB	.	4d#X/ 4b 4dd#X	.	(4F#/	4F#\	.	.	2dd#X/	2dd#\	ro-	.	.
4r	.	4r	.	4BB/)	4BB\	.	.	.	.	.	.	.
4r	.	4r	.	4B/	4G#X\	.	.	4ee/	4cc#\	-śnie	.	.
=71	=71	=71	=71	=71	=71	=71	=71	=71	=71	=71	=71	=71
!	!	!	!	!	!	!	!	!	!	!	!	!LO:DY:a
!	!	!	!	!	!	!	!	!	!	!	!	!LO:DY:a
2.r	.	2.r	.	[2B/	(2F#\	.	f <	(2ff#/	2dd#X\	wzma-	.	f <
.	.	.	.	8.B/]	8.E#X\)	.	.	8.aa#X/)	8.ddn\	-ga	.	.
.	.	.	.	16B/	16E#\	.	[	16gg#X/	16dd\	się	.	[
=72	=72	=72	=72	=72	=72	=72	=72	=72	=72	=72	=72	=72
2.r	.	2.r	.	(4A#X/	4F#\	.	.	(4ff#/	(4cc#\	ro-	.	.
.	.	.	.	4G#X/)	8G#\L	.	.	4ee/)	4b\)	.	.	.
.	.	.	.	.	8GG#X\J	.	.	.	.	.	.	.
.	.	.	.	4F#/	8AA#X\L	.	.	4dd#X/	4a#X\	-śnie	.	.
.	.	.	.	.	8BB\J	.	.	.	.	.	.	.
=73	=73	=73	=73	=73	=73	=73	=73	=73	=73	=73	=73	=73
4r	.	4r	.	(4F#/	2C#\	.	.	2cc#/	2g#X\	Od-	.	.
4CC#/ 4C#	.	4B/ 4e 4g#X 4b	sfz	4E/)	.	.	.	.	.	.	.	.
4r	.	4r	.	8.D#X/	8.C#\	.	.	8.b#X/	8.g#\	-kąd	.	.
.	.	.	.	16E/	16C#\	.	.	16cc#/	16g#\	za	.	.
=74	=74	=74	=74	=74	=74	=74	=74	=74	=74	=74	=74	=74
4r	.	4r	.	2G#X/	2C#\	.	.	2ee/	2b\	pan-	.	.
4CC#/ 4C#	.	4e^/ 4g#X 4b 4ee	.	.	.	.	.	.	.	.	.	.
4r	.	4r	.	8.F##X/	8.C#\	.	.	8.dd#X/	8.b\	-cerz	.	.
.	.	.	.	16G#/	16C#\	.	.	16ee/	16b\	ma	.	.
=75	=75	=75	=75	=75	=75	=75	=75	=75	=75	=75	=75	=75
!	!	!	!	!	!	!	!	!	!	!	!	!LO:DY:a
4r	.	4r	.	[2.B/	[2.F#\	.	.	2.gg#X/	[2.cc#\ [2.ee	tru-	.	ff
!	!	!	!	!LO:LB:g=original	!LO:LB:g=original	!	!	!LO:LB:g=original	!	!	!	!
[2FFF#/ [2FF#	.	[2g#X/ [2b [2ee [2gg#X	ff > ]]	.	.	.	.	.	.	.	.	.
!LO:LB:g=original	!	!	!LO:LB:g=original	!	!	!	!	!	!	!	!	!
=76	=76	=76	=76	=76	=76	=76	=76	=76	=76	=76	=76	=76
4FFF#/] 4FF#]	.	4g#/] 4b] 4ee] 4gg#]	p	(2B/]	2.F#\]	.	.	2gg/	2.cc#\_ 2.ee_	.	.	.
[4FF#'/ 4F#	.	4B/ 4e 4g#X 4b	.	.	.	.	.	.	.	.	.	.
4FF#'/] 4F#	.	4A#X/ 4e 4f# 4a#X	>	[4A#X/)	.	.	.	[4ff#/	.	.	.	.
=77	=77	=77	=77	=77	=77	=77	=77	=77	=77	=77	=77	=77
2BBB/ 2BB	.	((4c#/ 4e 4a#X 4cc#	.	4A#/]	4BB\ 4F#	.	.	4ff#/]	4cc#\] 4ee]	.	.	.
.	.	4B/)) 4d#X 4f# 4b	]	4B/	4BB\ 4F#	.	.	4b/	4dd#X\	-dy.	.	.
[4BBB/ [4BB	.	8g#X/L 8b 8ee	.	4r	4rEEyy	.	.	4r	4rcyy	.	.	.
.	.	8f#/J 8b 8dd#X	.	.	.	.	.	.	.	.	.	.
*	*	*	*	*v	*v	*	*	*	*	*	*	*
*	*	*	*	*	*	*	*v	*v	*	*	*
=78	=78	=78	=78	=78	=78	=78	=78	=78	=78	=78
*	*	*^	*	*	*	*	*	*	*	*
*	*	*	*^	*	*	*	*	*	*	*	*
2BBB/] 2BB]	.	8e/L 8a#X 8cc#	2rcyy	2ryy	.	2.r	.	.	2.r	.	.	.
.	.	8dd#X/J	.	.	.	.	.	.	.	.	.	.
.	.	4d#X/ 4f# 4b	.	.	.	.	.	.	.	.	.	.
(4CC#/ 4C#	.	8a#/L	[4e\	8c#\L	.	.	.	.	.	.	.	.
.	.	8B/J 8g#X	.	8B\J	.	.	.	.	.	.	.	.
*	*	*	*v	*v	*	*	*	*	*	*	*	*
=79	=79	=79	=79	=79	=79	=79	=79	=79	=79	=79	=79
!	!	!	!	!LO:DY:a	!	!	!	!	!	!	!
4DD#X/) 4D#X	.	4A#X/ 4d#X 4f#	4rc]	<	2.r	.	.	2.r	.	.	.
4FF#/ 4F#	.	8B#X/L 8e	4An\	[	.	.	.	.	.	.	.
!	!	!	!	!LO:DY:a	!	!	!	!	!	!	!
.	.	8d#/	.	<	.	.	.	.	.	.	.
8EE/L 8E	.	8c#/ 8e	[4G\	.	.	.	.	.	.	.	.
8DD#/J 8D#	.	8d#/J 8f#	.	.	.	.	.	.	.	.	.
=80	=80	=80	=80	=80	=80	=80	=80	=80	=80	=80	=80
4CC#/ 4C#	.	8e/L 8g#X	8G\L]	.	2.r	.	.	2.r	.	.	.
.	.	8b/	8B\J	.	.	.	.	.	.	.	.
4FF#/ 4F#	.	8A#X/ 8f# 8a#X	4rcyy	.	.	.	.	.	.	.	.
.	.	8B/ 8g# 8b	.	[	.	.	.	.	.	.	.
4FFF#/ 4FF#	.	8c#/ 8a# 8cc#	4rcyy	.	.	.	.	.	.	.	.
.	.	8d#X/J 8b 8dd#X	.	.	.	.	.	.	.	.	.
=81	=81	=81	=81	=81	=81	=81	=81	=81	=81	=81	=81
*^	*	*	*	*	*	*	*	*	*	*	*
*	*^	*	*	*	*	*	*	*	*	*	*	*
!	!	!	!	!	!	!LO:HP:t=cresc.	!	!	!	!	!	!	!
[4FF#/	[2.FF#\	8FFF#/	.	[8cc#/L 8ee	[4b\	<	2.r	.	.	2.r	.	.	.
!	!	!	!	!	!	!	!LO:LB:g=original	!	!	!LO:LB:g=original	!	!	!
.	.	8ryy	.	8gg#X/J	.	.	.	.	.	.	.	.	.
!	!	!	!	!LO:TX:b:i:t=molto	!	!	!	!	!	!	!	!	!
8FF#/L]	.	4ryy	.	(2cc#/] [2ff#	4b\]	[	.	.	.	.	.	.	.
8GG/	.	.	.	.	.	.	.	.	.	.	.	.	.
8AA#X/	.	4ryy	.	.	[4a#X\	.	.	.	.	.	.	.	.
!	!	!	!	!	!LO:LB:g=original	!	!	!	!	!	!	!	!
8BB/J	.	.	.	.	.	.	.	.	.	.	.	.	.
!LO:LB:g=original	!	!	!	!	!	!	!	!	!	!	!	!	!
*	*v	*v	*	*	*	*	*	*	*	*	*	*	*
=82	=82	=82	=82	=82	=82	=82	=82	=82	=82	=82	=82	=82
(8C#/L	2.FF#\]	.	4ff#/]	8a#\L] 8cc#	<	2.r	.	.	2.r	.	.	.
8D/	.	.	.	8an\ 8ccn	.	.	.	.	.	.	.	.
8E/	.	.	4ee/	8g#X\ 8b	.	.	.	.	.	.	.	.
8F#/	.	.	.	8f#\ 8a#X	.	.	.	.	.	.	.	.
8G/	.	.	4cc#X/	8e#X\ 8g#	[	.	.	.	.	.	.	.
8A#X/J)	.	.	.	8en\J 8gn	.	.	.	.	.	.	.	.
*v	*v	*	*	*	*	*	*	*	*	*	*	*
*	*	*v	*v	*	*	*	*	*	*	*	*
=83	=83	=83	=83	=83	=83	=83	=83	=83	=83	=83
2BB/ 2B	.	2d#X/) 2f# 2b	.	2.r	.	.	2.r	.	.	.
*clefG2	*	*	*	*	*	*	*	*	*	*
8.B/L 8.c# 8.e 8.gn	.	8.b\L 8.cc# 8.ee 8.bb	mf	.	.	.	.	.	.	.
16B/Jk 16c# 16e 16g	.	16b\Jk 16cc# 16ee 16bb	.	.	.	.	.	.	.	.
=84	=84	=84	=84	=84	=84	=84	=84	=84	=84	=84
2B/ 2c# 2e 2g	.	2b\ 2cc# 2ee 2bb	.	2.r	.	.	2.r	.	.	.
*clefF4	*	*	*	*	*	*	*	*	*	*
8.BB\L 8.E 8.Gn	.	8.c#/L 8.e 8.b	.	.	.	.	.	.	.	.
16BB\Jk 16E 16G	.	16c#/Jk 16e 16b	.	.	.	.	.	.	.	.
=85	=85	=85	=85	=85	=85	=85	=85	=85	=85	=85
2BB/ 2F# 2B	.	2d#X/ 2f# 2b	.	2.r	.	.	2.r	.	.	.
[4BBB/ [4BB	.	[4B/	f	.	.	.	.	.	.	.
=86	=86	=86	=86	=86	=86	=86	=86	=86	=86	=86
4BBB/] 4BB]	.	4B/]	.	2.r	.	.	2.r	.	.	.
4BBB/ 4BB	.	4B/	p	.	.	.	.	.	.	.
4BBB/ 4BB	.	4B/	.	.	.	.	.	.	.	.
=87||	=87||	=87||	=87||	=87||	=87||	=87||	=87||	=87||	=87||	=87||
*k[b-e-a-]	*	*k[b-e-a-]	*	*k[b-e-a-]	*	*	*k[b-e-a-]	*	*	*
*E-:	*	*E-:	*	*E-:	*	*	*E-:	*	*	*
*M4/4	*	*M4/4	*	*M4/4	*	*	*M4/4	*	*	*
*met(c)	*	*met(c)	*	*met(c)	*	*	*met(c)	*	*	*
*	*	*	*	*^	*	*	*^	*	*	*
!	!	!LO:TX:a:Bi:t=Andante non troppo.	!	!	!	!	!	!	!	!	!	!
[2BBB-;/ [2BB-	.	[2B-;/	>	2r;	2rEEyy	.	.	2r;	2rcyy	.	.	.
8BBB-/] 8BB-]	.	8B-/]	.	4r	4rEEyy	.	p	4r	4rcyy	.	.	p
8r	.	8r	]	.	.	.	.	.	.	.	.	.
4r	.	4r	.	4BB-/	4BB-\	.	.	4b-/	4b-\	O	.	.
!LO:PB:g=original	!	!LO:PB:g=original	!	!LO:PB:g=original	!LO:PB:g=original	!	!	!LO:PB:g=original	!LO:PB:g=original	!	!	!
=88	=88	=88	=88	=88	=88	=88	=88	=88	=88	=88	=88	=88
1r	.	1r	.	4G/	4E-\	.	.	4ee-/	4b-\	po-	.	.
.	.	.	.	4G/	4G\	.	.	4dd/	4b-\	-bło-	.	.
.	.	.	.	4A-/	4A-\	.	.	4cc/	4cc\	-go-	.	.
.	.	.	.	4A-/	4F\	.	.	4dd/	4dd\	-sław	.	.
=89	=89	=89	=89	=89	=89	=89	=89	=89	=89	=89	=89	=89
1r	.	1r	.	4G/	4C\	.	.	4ee-/	4cc\	Bo-	.	.
.	.	.	.	4F/	4C\	.	.	4ee-/	4cc\	-że	.	.
.	.	.	.	4.A-/	4.A-\	.	.	4.ee-/	4.cc\	pra-	.	.
.	.	.	.	8A-/	8F\	.	.	8ff/	8cc\	-cy	.	.
=90	=90	=90	=90	=90	=90	=90	=90	=90	=90	=90	=90	=90
4r	.	4r	.	4B-/	4B-\	.	.	4dd/	4dd\	tej	.	.
!	!	!LO:TX:b:i:t=dolce	!	!	!	!	!	!	!	!	!	!
4F\ 4e-	.	4a-\ 4ee- 4aa-	.	4r	4rEEyy	.	.	4r	4rcyy	.	.	.
4G\ 4e-	.	4b-\ 4ee- 4gg	.	2r	2rEEyy	.	.	2r	2rcyy	.	.	.
4A-\ 4c	.	8a-\L 8cc 8ff	.	.	.	.	.	.	.	.	.	.
.	.	8g\J 8cc 8ee-	.	.	.	.	.	.	.	.	.	.
=91	=91	=91	=91	=91	=91	=91	=91	=91	=91	=91	=91	=91
*^	*	*^	*	*	*	*	*	*	*	*	*	*
*	*	*	*	*^	*	*	*	*	*	*	*	*	*	*
4d/	[2B-\	.	(4dd/	2b-\	(4f\	.	2r	2rEEyy	.	.	2r	2rcyy	.	.	.
8c/L	.	.	8ee-/L	.	4g-X\	.	.	.	.	.	.	.	.	.	.
8e-/J	.	.	8cc/J	.	.	.	.	.	.	.	.	.	.	.	.
4d/	4B-\]	.	4b-/) 4ff	2rcyy	4f\)	.	4r	4rEEyy	.	.	4r	4rcyy	.	.	.
4r	4rEEyy	.	4r	.	4ryy	.	(4BB-/	(4BB-\	.	.	4b-/	[4b-\	Do-	.	.
*v	*v	*	*	*	*	*	*	*	*	*	*	*	*	*	*
*	*	*v	*v	*v	*	*	*	*	*	*	*	*	*	*
=92	=92	=92	=92	=92	=92	=92	=92	=92	=92	=92	=92	=92
1r	.	1r	.	4G/)	4E-\)	.	.	4ee-/	4b-\]	.	.	.
!LO:LB:g=original	!	!LO:LB:g=original	!	!	!	!	!	!	!	!	!	!
.	.	.	.	8G/	8G\	.	.	8dd/	8b-\	-zwól	.	.
.	.	.	.	8G/	8G\	.	.	8dd/	8b-\	niech	.	.
.	.	.	.	4A-/	4A-\	.	.	4cc/	4cc\	prze-	.	.
.	.	.	.	8A-/	8F\	.	.	8dd/	8dd\	-szkód	.	.
.	.	.	.	8A-/	8F\	.	.	8dd/	8dd\	za-	.	.
!	!	!	!	!LO:LB:g=original	!LO:LB:g=original	!	!	!	!LO:LB:g=original	!	!	!
=93	=93	=93	=93	=93	=93	=93	=93	=93	=93	=93	=93	=93
1r	.	1r	.	2G/	2C\	.	.	2ee-/	2cc\	-po-	.	.
.	.	.	.	4.A-/	4.A-\	.	.	4.ee-/	4.cc\	-ry	.	.
.	.	.	.	8A-/	8F\	.	.	8ff/	8cc\	zgru-	.	.
=94	=94	=94	=94	=94	=94	=94	=94	=94	=94	=94	=94	=94
*^	*	*	*	*	*	*	*	*	*	*	*	*
4r	2.rEEyy	.	4r	.	4B-/	4B-\	.	.	4dd/	4dd\	-cho-	.	.
!	!	!	!LO:TX:b:i:t=dolce	!	!	!	!	!	!	!	!	!	!
4c\ 4g	.	.	4b-\ 4ee- 4gg 4bb-	.	4B-/	4B-\	.	.	4b-/	4b-\	-ce	.	.
4F\ 4c 4f	.	.	4a-\ 4ee- 4aa-	.	2r	2rEEyy	.	.	2r	2rcyy	.	.	.
4B-/ [4e-	8G\L	.	4b-\ 4ee- 4gg	.	.	.	.	.	.	.	.	.	.
.	8A-\J	.	.	.	.	.	.	.	.	.	.	.	.
=95	=95	=95	=95	=95	=95	=95	=95	=95	=95	=95	=95	=95	=95
*	*	*	*^	*	*	*	*	*	*	*	*	*	*
(8e-/L]	(2B-\	.	(2a-/ 2ff	4ee-\	.	2r	2rEEyy	.	.	2r	2rcyy	.	.	.
8c/J	.	.	.	.	.	.	.	.	.	.	.	.	.	.
4f/	.	.	.	8b-\L	.	.	.	.	.	.	.	.	.	.
.	.	.	.	8dd\J	.	.	.	.	.	.	.	.	.	.
!	!	!	!	!	!	!	!	!	!	!	!	!	!	!LO:DY:a
4e-/)	4E-\) 4B-	.	4ee-/)	4g\ 4b-	.	4BB-/	4BB-\	.	pp	4b-/	4b-\	Nie-	.	pp
4r	4rEEyy	.	4r	4rcyy	.	8BB-/	8BB-\	.	.	8b-/	8b-\	-chaj	.	.
.	.	.	.	.	.	8BB-/	8BB-\	.	.	8b-/	8b-\	ob-	.	.
*v	*v	*	*	*	*	*	*	*	*	*	*	*	*	*
*	*	*v	*v	*	*	*	*	*	*	*	*	*	*
=96	=96	=96	=96	=96	=96	=96	=96	=96	=96	=96	=96	=96
1r	.	1r	.	4F/	4BB-\	.	.	4dd/	4b-\	-fi-	.	.
.	.	.	.	8E-/	8BB-\	.	.	8cc/	8b-\	-te	.	.
.	.	.	.	8E-/	8BB-\	.	.	8cc/	8b-\	u-	.	.
.	.	.	.	4A-/	4BB-\	.	.	4ff/	4b-\	-zbie-	.	.
.	.	.	.	8G/	8BB-\	.	.	8ee-/	8b-\	-ra	.	.
.	.	.	.	8E-/	8BB-\	.	.	8cc/	8b-\	o-	.	.
=97	=97	=97	=97	=97	=97	=97	=97	=97	=97	=97	=97	=97
4r	.	4r	.	4F/	4BB-\	.	.	4dd/	4b-\	-wo-	.	.
[4B-\ [4f	.	((4cc\ 4ee- 4aa-	>	4BB-/	4BB-\	.	.	4b-/	4b-\	-ce,	.	.
!	!	!	!	!	!	!	!	!LO:TX:t=P:problem=dwa zapisy ołówkowego alternatywnego tekstu, nałożony jeden na drugi, częściowo nieczytelne	!	!	!	!
4B-\] 4f]	.	4b-\)) 4dd 4ff	]	4BB-/	4BB-\	.	.	4b-/	4b-\	sło-	łask-	.
4r	.	4r	.	8BB-/	8BB-\	.	.	8b-/	8b-\	-dycz	-e	.
!LO:LB:g=original	!	!LO:LB:g=original	!	!	!	!	!	!	!	!	!	!
.	.	.	.	8BB-/	8BB-\	.	.	8b-/	8b-\	try-	ob-	.
!	!	!	!	!LO:LB:g=original	!LO:LB:g=original	!	!	!LO:LB:g=original	!LO:LB:g=original	!	!	!
=98	=98	=98	=98	=98	=98	=98	=98	=98	=98	=98	=98	=98
1r	.	1r	.	(4A-/	[4BB-\	.	.	(4ff/	[4b-\	-um-	-fi-	.
.	.	.	.	8G/)	8BB-\]	.	.	8ee-/)	8b-\]	.	.	.
.	.	.	.	8E-/	8BB-\	.	.	8cc/	8b-\	-fu	-tą	.
.	.	.	.	8F/	8BB-\	.	.	8dd/	8b-\	w na-	.	.
.	.	.	.	8G/	8BB-\	.	.	8ee-/	8cc\	-sze	mój	.
.	.	.	.	8A-/	8BB-\	.	.	8ff/	8dd\	kru-	oj-	.
.	.	.	.	8G/	8BB-\	.	.	8gg/	8cc\ 8ee-	-że	-cze	.
=99	=99	=99	=99	=99	=99	=99	=99	=99	=99	=99	=99	=99
4r	.	4r	.	4F/	4BB-\	.	.	4aa-/	4b-\ 4dd	złej	zlej	.
[4B-\ [4f	.	((4cc-X\ 4ee- 4aa-	>	4r	4rEEyy	.	.	4r	4rcyy	.	.	.
4B-\] 4f]	.	4b-\)) 4dd 4ff	]	4r	4rEEyy	.	.	4r	4rcyy	.	.	.
4r	.	4r	.	4BB-/	4BB-\	.	.	4b-/	4b-\	Mi-	.	p
=100	=100	=100	=100	=100	=100	=100	=100	=100	=100	=100	=100	=100
1r	.	1r	.	4G-X/	4E-\	.	.	4dd/	4b-\	-łoś-	.	.
.	.	.	.	8G-/	8G-\	.	.	8dd-X/	8b-\	-cią	.	.
.	.	.	.	8G-/	8G-\	.	.	8dd-/	8b-\	oj-	.	.
.	.	.	.	4A-/	4A-\	.	.	4cc-X/	4cc-\	-czy-	.	.
.	.	.	.	8A-/	8F-X\	.	.	8dd-/	8dd-\	-zny	.	.
!	!	!	!	!	!	!	!	!	!	!	!	!LO:DY:a
.	.	.	.	8A-/	8F-\	.	.	8dd-/	8dd-\	ol-	.	<
=101	=101	=101	=101	=101	=101	=101	=101	=101	=101	=101	=101	=101
1r	.	1r	.	4G-X/	4C-X\	.	.	4ee-/	4cc-X\	-śnie-	.	.
.	.	.	.	8G-/	8C-\	.	.	8ee-/	8cc-\	-ni	.	.
.	.	.	.	8G-/	8C-\	.	.	8ee-/	8cc-\	Z tą	.	.
.	.	.	.	2A-/	(4A-\	.	.	(4ee-/	2cc-\	wia-	.	[
.	.	.	.	.	4Fn\)	.	.	4ff/)	.	.	.	.
=102	=102	=102	=102	=102	=102	=102	=102	=102	=102	=102	=102	=102
1r	.	1r	.	4B-,/	4B-\	.	.	4ddn,/	4b-\	-rą	.	.
!LO:PB:g=original	!	!LO:PB:g=original	!	!	!	!	!	!	!	!	!	!
.	.	.	.	4c-X/	4F\	.	f	4aa-/	4ee-\	że	.	f
!	!	!	!	!	!	!	!	!	!	!	!	!LO:DY:a
.	.	.	.	4B-/	4B-\	.	>	4gg-X/	4dd\	sprzy-	.	>
.	.	.	.	8B-/	8BB-\	.	.	8ff/	8dd\	-ja	.	.
.	.	.	.	8B-/	8BB-\	.	]	8ff/	8dd\	nam	.	.
!	!	!	!	!LO:PB:g=original	!LO:PB:g=original	!	!	!LO:PB:g=original	!LO:PB:g=original	!	!	!
=103	=103	=103	=103	=103	=103	=103	=103	=103	=103	=103	=103	=103
*	*	*^	*	*	*	*	*	*	*	*	*	*
4r	.	4raa	4rcyy	.	4B-/	4E-\	.	.	4gg-X/	4ee-\	Bóg	.	]
!	!	!LO:TX:b:i:t=dolce	!	!	!	!	!	!	!	!	!	!	!
4G-X\ 4B- [4e-	<	(4bb-/	8ee-\L	.	4r	4rEEyy	.	.	4r	4rcyy	.	.	.
.	.	.	8dd-X\J	.	.	.	.	.	.	.	.	.	.
4A-\ 4c-X 4e-]	.	4ee-/)	4cc-X\	.	4r	4rEEyy	.	.	4r	4rcyy	.	.	.
4D-X\ 4A- [4d-X	[ >	(4f/ 4cc- 4ff	4rcyy	.	4D-X/	4D-\	.	p	4dd-X/	4dd-\	Do	.	.
*	*	*v	*v	*	*	*	*	*	*	*	*	*	*
=104	=104	=104	=104	=104	=104	=104	=104	=104	=104	=104	=104	=104
!	!	!	!	!	!	!	!	!	!	!	!	!LO:DY:a
4G-X\ 4d-]	.	4g-X\) 4b- 4gg-X	.	4B-/	4G-X\	.	.	4gg-X/	4dd-X\	pra-	stop	p <
4r	]	4r	.	8B-/	8B-\	.	<	8ff/	8dd-\	-cy!	twych	.
.	.	.	.	8B-/	8B-\	.	.	8ff/	8dd-\	Niech	o	.
2r	.	2r	.	4c-X/	4c-\	.	.	4ee-/	4ee-\	o-	pa-	.
.	.	.	.	8c-/	8A-\	.	.	8ff/	8ff\	-na	-nie	.
.	.	.	.	8c-/	8A-\	.	.	8ff/	8ff\	wy-	za-	[
=105	=105	=105	=105	=105	=105	=105	=105	=105	=105	=105	=105	=105
1r	.	1r	.	4B-/	4E-\	.	.	4gg-X/	4ee-\	-ple-	-no-	.
!	!	!	!	!	!	!	!	!	!	!	!	!LO:DY:a
.	.	.	.	8d-X/	8D-X\	.	.	8aa-/	8ff\	-ni	-sim	f
.	.	.	.	8d-/	8D-\	.	.	8aa-/	8ff\	ką-	bła-	.
.	.	.	.	4d-/	4G-X\	.	.	4bb-/	4gg-\	-ko-	-ga-	.
.	.	.	.	8c-X/	8A-\	.	.	8aa-/	8ee-\	-le	-wy-	.
.	.	.	.	8c-/	8A-\	.	.	8aa-/	8ee-\	i	-słu-	.
=106	=106	=106	=106	=106	=106	=106	=106	=106	=106	=106	=106	=106
1r	.	1r	.	(4B-/	(4E-\	.	.	(4gg-X/	4ee-\	cier-	-cha	.
.	.	.	.	8A-/L	4AA-\)	.	.	8ff/L	4cc-X\	.	.	.
.	.	.	.	8G-X/J)	.	.	.	8ee-/J)	.	.	.	.
.	.	.	.	4F/	4BB-\	.	.	4dd/	4b-\	-nie	?	.
.	.	.	.	4A-/	4BB-\	.	.	4ff/	4b-\	nam	?	.
=107	=107	=107	=107	=107	=107	=107	=107	=107	=107	=107	=107	=107
4EE-/ 4E-	.	4ee-\ 4gg 4bb- 4eee-	f	4G/	4E-\	.	[	4ee-/	4b-\	z dróg	?	.
4GG/ 4G	.	4dd\ 4gg 4bb- 4ddd	.	4r	4rEEyy	.	.	4r	4rcyy	.	.	.
4AA-/ 4A-	.	4cc\ 4ee- 4aa- 4ccc	.	2r	2rEEyy	.	.	2r	2rcyy	.	.	.
!	!	!	!	!	!LO:LB:g=original	!	!	!	!LO:LB:g=original	!	!	!
4FF/ 4F	.	4dd\ 4aa- 4ddd	.	.	.	.	.	.	.	.	.	.
!LO:LB:g=original	!	!LO:LB:g=original	!	!	!	!	!	!	!	!	!	!
*	*	*	*	*v	*v	*	*	*	*	*	*	*
*	*	*	*	*	*	*	*v	*v	*	*	*
=108	=108	=108	=108	=108	=108	=108	=108	=108	=108	=108
4.CC/ 4.C	.	4.ee-\ 4.gg 4.eee-	.	1r	.	.	1r	.	.	.
8CC/ 8C	.	8ee-\ 8gg 8eee-	.	.	.	.	.	.	.	.
4AA-/ 4A-	.	4ee-\ 4aa- 4ccc 4eee-	.	.	.	.	.	.	.	.
4FF/ 4F	.	4ff\ 4aa- 4ccc 4fff	.	.	.	.	.	.	.	.
=109	=109	=109	=109	=109	=109	=109	=109	=109	=109	=109
4BB-/ 4B-	.	4dd\ 4ff 4bb- 4ddd	.	1r	.	.	1r	.	.	.
*	*	*8va	*	*	*	*	*	*	*	*
4FFF/ 4FF	.	4aa-\ 4ccc 4eee- 4aaa-	.	.	.	.	.	.	.	.
4GGG/ 4GG	.	4gg\ 4bb- 4eee- 4ggg	.	.	.	.	.	.	.	.
8AAA-/L 8AA-	.	4ff\ 4aa- 4ccc 4fff	.	.	.	.	.	.	.	.
8BBB-/J 8BB-	.	.	.	.	.	.	.	.	.	.
=110	=110	=110	=110	=110	=110	=110	=110	=110	=110	=110
4CC/ 4C	.	4ee-/ 4gg 4ccc 4eee-	.	1r	.	.	1r	.	.	.
8DD/L 8D	.	8ff/L 8aa- 8ddd	.	.	.	.	.	.	.	.
8EE-/J 8E-	.	8ee-/J 8gg 8ccc	.	.	.	.	.	.	.	.
4FF/ 4F	.	4.dd/ 4.ff 4.bb-	.	.	.	.	.	.	.	.
4DD/ 4D	.	.	.	.	.	.	.	.	.	.
.	.	8cc/ 8ff 8aa-	.	.	.	.	.	.	.	.
=111	=111	=111	=111	=111	=111	=111	=111	=111	=111	=111
4GG/ 4G	.	4bn/ 4dd 4gg	.	1r	.	.	1r	.	.	.
*	*	*X8va	*	*	*	*	*	*	*	*
8C/L	.	8g\L 8cc 8ee-	p	.	.	.	.	.	.	.
8D/J	.	8f\J 8b 8dd	.	.	.	.	.	.	.	.
4E-/	.	4.e-\ 4.g 4.cc	.	.	.	.	.	.	.	.
4BB-/ 4B-	.	.	.	.	.	.	.	.	.	.
.	.	8e-/ 8g 8cc	<	.	.	.	.	.	.	.
=112	=112	=112	=112	=112	=112	=112	=112	=112	=112	=112
4BB-/ 4B-	.	4.d/ 4.f#X 4.cc 4.dd	.	1r	.	.	1r	.	.	.
2AA-X/ 2A-X	.	.	.	.	.	.	.	.	.	.
.	.	8d/ 8f# 8cc 8dd	.	.	.	.	.	.	.	.
.	.	4d/ 4f# 4cc 4dd	.	.	.	.	.	.	.	.
4GG/ 4G	.	4d/ 4g 4bn 4dd	[[	.	.	.	.	.	.	.
=113	=113	=113	=113	=113	=113	=113	=113	=113	=113	=113
4FF/ 4F	.	4.d/ 4.a-X 4.b-X 4.dd	.	1r	.	.	1r	.	.	.
!	!	!	!	!	!LO:LB:g=original	!	!	!LO:LB:g=original	!	!
2EEn/ 2En	.	.	.	.	.	.	.	.	.	.
.	.	8d/ 8a- 8b- 8dd	>	.	.	.	.	.	.	.
.	.	4d/ 4a- 4b- 4dd	.	.	.	.	.	.	.	.
4E\ 4B-	.	4d/ 4g#X	]]	.	.	.	.	.	.	.
!LO:LB:g=original	!	!LO:LB:g=original	!	!	!	!	!	!	!	!
=114||	=114||	=114||	=114||	=114||	=114||	=114||	=114||	=114||	=114||	=114||
*k[f#c#]	*	*k[f#c#]	*	*k[f#c#]	*	*	*k[f#c#]	*	*	*
*D:	*	*D:	*	*D:	*	*	*D:	*	*	*
*M2/4	*	*M2/4	*	*M2/4	*	*	*M2/4	*	*	*
!	!	!	!	!	!	!	!LO:TX:b:Bi:t=Allegromolto 	!	!	!
4AA\ 4A	pp	4c#/ 4a	pp	2r	.	.	2r	.	.	.
!	!	!LO:TX:b:i:t=legg	!	!	!	!	!	!	!	!
4r	.	4a\ 4aa	.	.	.	.	.	.	.	.
=115	=115	=115	=115	=115	=115	=115	=115	=115	=115	=115
4AAA/ 4AA	.	4r	.	2r	.	.	2r	.	.	.
4r	.	4a\ 4aa	.	.	.	.	.	.	.	.
=116	=116	=116	=116	=116	=116	=116	=116	=116	=116	=116
4AAA/ 4AA	.	4r	.	2r	.	.	2r	.	.	.
4r	.	4a\ 4aa	.	.	.	.	.	.	.	.
=117	=117	=117	=117	=117	=117	=117	=117	=117	=117	=117
4AAA/ 4AA	.	4r	.	2r	.	.	2r	.	.	.
4r	.	4a\ 4aa	.	.	.	.	.	.	.	.
=118	=118	=118	=118	=118	=118	=118	=118	=118	=118	=118
4AAA/ 4AA	.	4r	.	2r	.	.	2r	.	.	.
4AA/	.	[4a^\ [4aa	.	.	.	.	.	.	.	.
=119	=119	=119	=119	=119	=119	=119	=119	=119	=119	=119
4AAA/	.	8a\L] 8aa]	pp	2r	.	.	2r	.	.	.
.	.	(16aa\L	.	.	.	.	.	.	.	.
.	.	16bb\JJ	.	.	.	.	.	.	.	.
4AA/	.	8gg\L)	.	.	.	.	.	.	.	.
.	.	8ff#\J	.	.	.	.	.	.	.	.
=120	=120	=120	=120	=120	=120	=120	=120	=120	=120	=120
4AAA/	.	8gg\L	.	2r	.	.	2r	.	.	.
.	.	(16gg\L	.	.	.	.	.	.	.	.
.	.	16aa\JJ	.	.	.	.	.	.	.	.
4AA/	.	8ff#\L)	.	.	.	.	.	.	.	.
.	.	8ee\J	.	.	.	.	.	.	.	.
=121	=121	=121	=121	=121	=121	=121	=121	=121	=121	=121
4AAA/	.	8ff#\L	.	2r	.	.	2r	.	.	.
!	!	!	!	!LO:PB:g=original	!	!	!LO:PB:g=original	!	!	!
.	.	(16ff#\L	.	.	.	.	.	.	.	.
.	.	16gg\JJ	.	.	.	.	.	.	.	.
4AA/	.	8ee\L)	.	.	.	.	.	.	.	.
.	.	8dd\J	.	.	.	.	.	.	.	.
!LO:PB:g=original	!	!LO:PB:g=original	!	!	!	!	!	!	!	!
=122	=122	=122	=122	=122	=122	=122	=122	=122	=122	=122
4AAA/	.	4cc#\	.	2r	.	.	2r	.	.	.
8r	.	[4aa\	.	.	.	.	.	.	.	.
8GG/ 8G	.	.	.	.	.	.	.	.	.	.
=123	=123	=123	=123	=123	=123	=123	=123	=123	=123	=123
*	*	*^	*	*	*	*	*	*	*	*
4FF#/ 4F#	.	8aa\L]	4rcyy	.	2r	.	.	2r	.	.	.
.	.	(16aa\L	.	<	.	.	.	.	.	.	.
.	.	16bb\JJ	.	.	.	.	.	.	.	.	.
4DD#X/ 4D#X	.	8gg/L)	((4a\ 4b	.	.	.	.	.	.	.	.
.	.	8ff#/J	.	.	.	.	.	.	.	.	.
=124	=124	=124	=124	=124	=124	=124	=124	=124	=124	=124	=124
4EE/ 4E	.	8gg/L	4g\)) 4b	.	2r	.	.	2r	.	.	.
.	.	(16gg/L	.	.	.	.	.	.	.	.	.
.	.	16aa/JJ	.	.	.	.	.	.	.	.	.
4CC#/ 4C#	.	8ff#/L)	((4g\ 4b-X	.	.	.	.	.	.	.	.
.	.	8ee/J	.	.	.	.	.	.	.	.	.
=125	=125	=125	=125	=125	=125	=125	=125	=125	=125	=125	=125
4DD/ 4D	.	8ff#/L	4f#\)) 4a	.	2r	.	.	2r	.	.	.
.	.	(16ff#/L	.	.	.	.	.	.	.	.	.
.	.	16gg/JJ	.	.	.	.	.	.	.	.	.
4BBB-X/ 4BB-X	.	8ee/L)	4d\ 4g#X	.	.	.	.	.	.	.	.
.	.	8dd/J	.	[	.	.	.	.	.	.	.
*	*	*v	*v	*	*	*	*	*	*	*	*
=126	=126	=126	=126	=126	=126	=126	=126	=126	=126	=126
4AAA/ 4AA	.	8e\ 8a 8cc#	f	2r	.	.	2r	.	.	.
.	.	8r	.	.	.	.	.	.	.	.
4r	.	4A/ 4e 4a	.	.	.	.	.	.	.	.
=127	=127	=127	=127	=127	=127	=127	=127	=127	=127	=127
4AAA/ 4AA	.	4r	f	2r	.	.	2r	.	.	.
4r	.	4A/ 4e 4a	.	.	.	.	.	.	.	.
=128	=128	=128	=128	=128	=128	=128	=128	=128	=128	=128
4AAA/ 4AA	.	4r	.	2r;	.	.	2r;	.	.	.
4r;	.	4A;/ 4e 4a	.	.	.	.	.	.	.	.
=129	=129	=129	=129	=129	=129	=129	=129	=129	=129	=129
*	*	*	*	*^	*	*	*	*	*	*
!	!	!	!	!	!	!	!LO:DY:a	!	!	!	!
2r	.	2r	.	4r	4rEEyy	.	f	2r	.	.	.
!	!	!	!	!LO:TX:a:i:t=marc.	!	!	!	!	!	!	!
.	.	.	.	4D/	4D\	Do	.	.	.	.	.
=130	=130	=130	=130	=130	=130	=130	=130	=130	=130	=130	=130
4AA\	.	4ryy	.	2G/	2G\	pra-	.	2r	.	.	.
4A\	.	[4aa/	p	.	.	.	.	.	.	.	.
=131	=131	=131	=131	=131	=131	=131	=131	=131	=131	=131	=131
*	*	*^	*	*	*	*	*	*	*	*	*
4AA/	.	8aa/L]	[2a\	.	4.F#/	4.F#\	-cy!	.	2r	.	.	.
!	!	!	!LO:LB:g=original	!	!	!	!	!	!LO:LB:g=original	!	!	!
.	.	(16aa/L	.	.	.	.	.	.	.	.	.	.
.	.	16bb/JJ	.	.	.	.	.	.	.	.	.	.
4A\	.	[4gg/)	.	.	.	.	.	.	.	.	.	.
!LO:LB:g=original	!	!LO:LB:g=original	!	!	!	!	!	!	!	!	!	!
.	.	.	.	.	8E/	8E\	Do	.	.	.	.	.
!	!	!	!	!	!	!LO:LB:g=original	!	!	!	!	!	!
=132	=132	=132	=132	=132	=132	=132	=132	=132	=132	=132	=132	=132
4E\	.	8gg/L]	2a\]	.	2A/	2A\	pra-	.	2r	.	.	.
.	.	(16gg/L	.	.	.	.	.	.	.	.	.	.
.	.	16aa/JJ	.	.	.	.	.	.	.	.	.	.
4A\	.	8ff#/L)	.	.	.	.	.	.	.	.	.	.
.	.	8ee'/J	.	.	.	.	.	.	.	.	.	.
=133	=133	=133	=133	=133	=133	=133	=133	=133	=133	=133	=133	=133
4E\	.	8dd'/L	4g#X\	.	4G#X/	4G#\	-cy	.	2r	.	.	.
.	.	(16dd/L	.	.	.	.	.	.	.	.	.	.
.	.	16ee/JJ	.	.	.	.	.	.	.	.	.	.
4G#X\	.	8cc#/L)	4d\	.	4E/	4E\	to	.	.	.	.	.
.	.	8b/J	.	.	.	.	.	.	.	.	.	.
=134	=134	=134	=134	=134	=134	=134	=134	=134	=134	=134	=134	=134
4A\	.	16a/LL	4c#\	.	4.Gn/	4.G\	na-	.	2r	.	.	.
.	.	16b/	.	.	.	.	.	.	.	.	.	.
.	.	16cc#/	.	.	.	.	.	.	.	.	.	.
.	.	16b/JJ	.	.	.	.	.	.	.	.	.	.
4AA/	.	[4a/	4g\	.	.	.	.	.	.	.	.	.
.	.	.	.	.	8G/	8G\	-szem	.	.	.	.	.
=135	=135	=135	=135	=135	=135	=135	=135	=135	=135	=135	=135	=135
*	*	*	*	*	*	*	*	*	*^	*	*	*
4D\	.	4a/]	8f#\L	.	8F#/L	8F#\L	ha-	.	2re	4rg	.	.	.
!	!	!LO:TX:b:i:t=poco a poco	!	!	!	!	!	!	!	!	!	!	!
.	.	.	16f#\L	.	8E/J	8E\J	.	.	.	.	.	.	.
.	.	.	16g\JJ	.	.	.	.	.	.	.	.	.	.
!	!	!	!	!	!	!	!	!	!LO:TX:a:i:t=marc.	!	!	!	!
4F#\	.	[4aa/	16a\LL	.	8F#/	8F#\	-słem	.	.	4a\	Do	.	f
.	.	.	16g\	.	.	.	.	.	.	.	.	.	.
.	.	.	16f#\	.	8D/	8D\	ro-	.	.	.	.	.	.
.	.	.	16e\JJ	.	.	.	.	.	.	.	.	.	.
=136	=136	=136	=136	=136	=136	=136	=136	=136	=136	=136	=136	=136	=136
4BB\	.	8aa/L]	4d\	<	(4Fn/	4Fn\	-da-	.	2r	2dd\	pra-	.	.
.	.	(16bb/L	.	.	.	.	.	.	.	.	.	.	.
.	.	16aa/JJ	.	.	.	.	.	.	.	.	.	.	.
4E\	.	16gg#X/LL	(4dd\	.	4E/)	[4E\	.	.	.	.	.	.	.
.	.	16aa/	.	.	.	.	.	.	.	.	.	.	.
.	.	16gg#/	.	.	.	.	.	.	.	.	.	.	.
.	.	16ff#/JJ)	.	[	.	.	.	.	.	.	.	.	.
=137	=137	=137	=137	=137	=137	=137	=137	=137	=137	=137	=137	=137	=137
4EE/	.	8ee/	8cc#\)	.	4E/	4E\]	.	.	2r	4.cc#\	-cy!	.	.
.	.	4f#/	8f#/yy	.	.	.	.	.	.	.	.	.	.
4E\	.	.	(4d\	.	4D/	[4D\	-cy	.	.	.	.	.	.
.	.	8g#X/	.	.	.	.	.	.	.	8b\	do	.	.
=138	=138	=138	=138	=138	=138	=138	=138	=138	=138	=138	=138	=138	=138
4AA/	.	(16a/LL	2c#\)	.	4D/	4D\]	.	.	2r	2ee\	pra-	.	.
!	!	!	!	!	!	!	!	!	!LO:LB:g=original	!LO:LB:g=original	!	!	!
.	.	16b/	.	.	.	.	.	.	.	.	.	.	.
.	.	16cc#/	.	.	.	.	.	.	.	.	.	.	.
.	.	16b/JJ	.	.	.	.	.	.	.	.	.	.	.
4E\	.	16a/LL	.	.	4C#/	4C#\	do	.	.	.	.	.	.
!LO:LB:g=original	!	!	!	!	!LO:LB:g=original	!LO:LB:g=original	!	!	!	!	!	!	!
.	.	16b/	.	.	.	.	.	.	.	.	.	.	.
.	.	16a/	.	.	.	.	.	.	.	.	.	.	.
.	.	16g#X/JJ)	.	.	.	.	.	.	.	.	.	.	.
!	!	!LO:LB:g=original	!	!	!	!	!	!	!	!	!	!	!
=139	=139	=139	=139	=139	=139	=139	=139	=139	=139	=139	=139	=139	=139
4BB/	.	8f#/L	2d#X\	.	(2A/	[2A\	pra-	.	2r	4dd#X\	-cy	.	.
.	.	(16f#/L	.	.	.	.	.	.	.	.	.	.	.
.	.	16a/JJ	.	.	.	.	.	.	.	.	.	.	.
4B\	.	8g#X/L)	.	.	.	.	.	.	.	4b\	to	.	.
.	.	8f#/J	.	.	.	.	.	.	.	.	.	.	.
=140	=140	=140	=140	=140	=140	=140	=140	=140	=140	=140	=140	=140	=140
4E\	.	4e/	2dn\	.	4A/	4A\]	.	.	2r	4.ddn\	na-	.	.
4G#X\	.	[4ee/	.	.	4G#X/)	4G#\	.	.	.	.	.	.	.
.	.	.	.	.	.	.	.	.	.	8dd\	-szem	.	.
=141	=141	=141	=141	=141	=141	=141	=141	=141	=141	=141	=141	=141	=141
4A\	.	8ee/L]	4c#\	.	4A/	4A\	-cy	.	2rdd	8cc#\L	ha-	.	.
.	.	(16ee/L	.	.	.	.	.	.	.	8b\J	.	.	.
.	.	16dd/JJ	.	.	.	.	.	.	.	.	.	.	.
4AA/	.	8cc#/L)	4e#X\	.	4E#X/	4E#\	to	.	.	8cc#\	-słem	.	.
.	.	(16cc#/L	.	.	.	.	.	.	.	8a\	ro-	.	.
.	.	16b/JJ	.	<	.	.	.	.	.	.	.	.	.
=142	=142	=142	=142	=142	=142	=142	=142	=142	=142	=142	=142	=142	=142
4D/	.	8a/L)	4f#\	.	(4F#/	4F#\	na-	.	2rdd	2ccn\	-da-	.	.
.	.	16a/L	.	.	.	.	.	.	.	.	.	.	.
.	.	16gn/JJ	.	.	.	.	.	.	.	.	.	.	.
4DD/	.	16f#/LL	4cn\	.	4A/	[4A\	.	.	.	.	.	.	.
.	.	16g/	.	.	.	.	.	.	.	.	.	.	.
.	.	16f#/	.	.	.	.	.	.	.	.	.	.	.
.	.	16e/JJ	.	[	.	.	.	.	.	.	.	.	.
=143	=143	=143	=143	=143	=143	=143	=143	=143	=143	=143	=143	=143	=143
*	*	*	*^	*	*	*	*	*	*	*	*	*	*
4GG/	.	8d/	4B\	4ryy	.	4A/)	4A\]	.	.	4rdd	[2b\	cy	.	.
.	.	8b/L	.	.	f	.	.	.	.	.	.	.	.	.
4G\	.	(8dd/J	4b\	8dd\L	.	8G/L	8G\L	-szem	.	4dd/	.	-Do	.	.
.	.	8raayy	.	16ee\L	.	8F#/J	8F#\J	.	.	.	.	.	.	.
.	.	.	.	16ff#\JJ	.	.	.	.	.	.	.	.	.	.
*	*	*	*v	*v	*	*	*	*	*	*	*	*	*	*
=144	=144	=144	=144	=144	=144	=144	=144	=144	=144	=144	=144	=144	=144
4E\	.	16gg/LL)	4b\	.	2E/	2E\	ha-	.	2gg/	4b\]	pra-	.	.
.	.	16ff#/	.	.	.	.	.	.	.	.	.	.	.
.	.	16ee/	.	.	.	.	.	.	.	.	.	.	.
.	.	16dd/JJ	.	.	.	.	.	.	.	.	.	.	.
4AA/	.	16cc#/LL	4e\	.	.	.	.	.	.	4cc#X\	-to	.	.
.	.	16b/	.	.	.	.	.	.	.	.	.	.	.
.	.	16a/	.	.	.	.	.	.	.	.	.	.	.
.	.	16g/JJ	.	.	.	.	.	.	.	.	.	.	.
=145	=145	=145	=145	=145	=145	=145	=145	=145	=145	=145	=145	=145	=145
4D\	.	8f#^/	4d\	.	4D/	4D\	-słem	.	4ff#/	4dd\	na-	.	.
.	.	((8a/L	.	.	.	.	.	.	.	.	.	.	.
4G\	.	16a/L	4ryy	.	4G/	4G\	to	.	8rdd	4cc#\	-szem	.	.
.	.	16b/	.	.	.	.	.	.	.	.	.	.	.
.	.	16cc#/	.	.	.	.	.	.	8ee/	.	do	.	.
.	.	16b/JJ)	.	.	.	.	.	.	.	.	.	.	.
=146	=146	=146	=146	=146	=146	=146	=146	=146	=146	=146	=146	=146	=146
4F#\	.	4a/)	8rggg	.	4F#/	(4F#\	na-	.	2aa/	(4cc#\	-ha-	.	.
!	!	!LO:TX:a:i:t=legg.	!	!	!	!	!	!LO:PB:g=original	!	!	!	!	!
.	.	.	(16ff#\LL	.	.	.	.	.	.	.	.	.	.
.	.	.	16gg\J	.	.	.	.	.	.	.	.	.	.
4E\ [4c#	.	8raa	8aa\J)	.	4E/	[4E\	.	.	.	[4ccn\	.	.	.
!LO:PB:g=original	!	!	!	!	!	!LO:PB:g=original	!	!	!	!LO:PB:g=original	!	!	!
.	.	(16eee/LL	8rff	.	.	.	.	.	.	.	.	.	.
.	.	16fff#/JJ)	.	.	.	.	.	.	.	.	.	.	.
!	!	!LO:PB:g=original	!	!	!	!	!	!	!	!	!	!	!
=147	=147	=147	=147	=147	=147	=147	=147	=147	=147	=147	=147	=147	=147
4E\ 4c#]	.	8ggg#X/	8rdd	.	4E/)	4E\]	.	.	4gg/	4cc\])	-cy	.	.
.	.	8raa	([8e^\	.	.	.	.	.	.	.	.	.	.
[4D\ [4B	.	4rdd	16e\LL]	.	4D/	4D\	-szem	.	4ee/	4b\	słem	.	.
.	.	.	16f#\	.	.	.	.	.	.	.	.	.	.
.	.	.	16g#X\	.	.	.	.	.	.	.	.	.	.
.	.	.	16f#\JJ	.	.	.	.	.	.	.	.	.	.
=148	=148	=148	=148	=148	=148	=148	=148	=148	=148	=148	=148	=148	=148
*	*	*	*^	*	*	*	*	*	*	*	*	*	*
(4D\] 4B]	.	4raa	8e\)	8r	.	(4D/	4D\	ha-	.	4.ggn/	(4b\	na-	.	.
.	.	.	8rcyy	16ee/LL	.	.	.	.	.	.	.	.	.	.
.	.	.	.	16ff#/J	.	.	.	.	.	.	.	.	.	.
(4C#X\ [4B-X	.	8raa	4rcyy	8ggn/J	.	[4C#/)	4C#\	.	.	.	[4b-X\)	.	.	.
.	.	(16ddd/LL	.	8r	.	.	.	.	.	8gg/	.	-szem	.	.
.	.	16eee/JJ	.	.	.	.	.	.	.	.	.	.	.	.
*	*	*	*v	*v	*	*	*	*	*	*	*	*	*	*
=149	=149	=149	=149	=149	=149	=149	=149	=149	=149	=149	=149	=149	=149
4BB-X\) 4B-]	.	8fff#/)	8rdd	.	4C#/]	4C#\	.	.	8ff#/L	4b-\]	-ha-	.	.
.	.	8raayy	[8d\	.	.	.	.	.	8ee/J	.	.	.	.
4Cn\) 4A	.	4raayy	16d\LL]	.	4Cn/	[4C\	-słem	.	8ff#/	[4a\	-szem	.	.
.	.	.	16e\	.	.	.	.	.	.	.	.	.	.
.	.	.	16f#\	.	.	.	.	.	8dd/	.	ro-	.	.
.	.	.	16e\JJ	.	.	.	.	.	.	.	.	.	.
=150	=150	=150	=150	=150	=150	=150	=150	=150	=150	=150	=150	=150	=150
4Cn\ 4A	.	8rg	4d\	.	4Cn/	4C\]	.	.	(4ffn/	4a\]	da-	.	.
.	.	16dd\LL	.	.	.	.	.	.	.	.	.	.	.
.	.	16ee\J	.	.	.	.	.	.	.	.	.	.	.
(4BB\ 4A	.	8ffn\J	8rcyy	.	4BB/	4BB\	ro-	.	4dd/	4a\	-ro-	.	.
.	.	16bb/LL	8r	.	.	.	.	.	.	.	.	.	.
.	.	16ccc#/JJ	.	.	.	.	.	.	.	.	.	.	.
*	*	*v	*v	*	*	*	*	*	*	*	*	*	*
=151	=151	=151	=151	=151	=151	=151	=151	=151	=151	=151	=151	=151
*^	*	*	*	*	*	*	*	*	*	*	*	*
4B/	4Fn\ 4A	.	16ddd/LL	.	(4Fn/	4F\	-da-	.	(4b/)	(4g\	-da-	.	.
.	.	.	16ccc#/	.	.	.	.	.	.	.	.	.	.
.	.	.	16bb/	.	.	.	.	.	.	.	.	.	.
.	.	.	16aa/JJ	.	.	.	.	.	.	.	.	.	.
8c#/L	4E\) 4G#X 4c#	.	16gg#X/LL	.	4E/)	4E\	.	.	8cc#/L	4g#X\	.	.	.
.	.	.	16ff#/	.	.	.	.	.	.	.	.	.	.
8d/J	.	.	16ee/	.	.	.	.	.	8dd/J)	.	.	.	.
.	.	.	16dd/JJ	.	.	.	.	.	.	.	.	.	.
*v	*v	*	*	*	*	*	*	*	*	*	*	*	*
=152	=152	=152	=152	=152	=152	=152	=152	=152	=152	=152	=152	=152
8A\ 8c#	.	8cc#\	p	4AA/	4AA\	-cy	.	8cc#/	8a\)	cy	.	.
8r	.	8r	.	.	.	.	.	8rdd	8rcyy	.	.	.
4r	.	8A/L 8c#	.	4r	4rEEyy	.	.	8cc#/L	8a\L	to	.	p
.	.	8B/J 8d	.	.	.	.	.	8dd/J	8b\J	.	.	.
=153	=153	=153	=153	=153	=153	=153	=153	=153	=153	=153	=153	=153
4r	.	4c#/ 4e	.	4r	4rEEyy	.	.	4ee'/	4cc#'\	na-	.	.
!	!	!	!	!	!	!	!LO:DY:a	!	!	!	!	!
4AA/	.	4A/ 4c#	.	4AA/	4AA\	Do	p	4cc#'/	4a'\	-szem	.	.
=154	=154	=154	=154	=154	=154	=154	=154	=154	=154	=154	=154	=154
*	*	*^	*	*	*	*	*	*	*	*	*	*
4D\ 4F#	.	8A/	4rcyy	.	2D^/	2D\	pra-	.	(4a/	(4f#\	ha-	.	.
!	!	!	!	!	!LO:LB:g=original	!LO:LB:g=original	!	!	!	!	!	!	!
.	.	(16ff#/LL	.	.	.	.	.	.	.	.	.	.	.
.	.	16gg#X/JJ	.	.	.	.	.	.	.	.	.	.	.
4DD/ 4D	.	8ff#/L)	4g#X\ 4b	.	.	.	.	.	4b/)	4g#X\)	.	.	.
!LO:LB:g=original	!	!	!	!	!	!	!	!	!LO:LB:g=original	!LO:LB:g=original	!	!	!
.	.	(16ff#/L	.	.	.	.	.	.	.	.	.	.	.
.	.	16gg#/JJ	.	.	.	.	.	.	.	.	.	.	.
!	!	!LO:LB:g=original	!	!	!	!	!	!	!	!	!	!	!
=155	=155	=155	=155	=155	=155	=155	=155	=155	=155	=155	=155	=155	=155
*	*	*	*^	*	*	*	*	*	*	*	*	*	*
4CC#/ 4C#	.	4ee/)	4rc	4a\ 4cc#	.	4C#/	4C#\	-cy!	.	4cc#/	4a\	-słem	.	.
8r	.	8d/L	(4A\	4r	.	8r	8rEEyy	.	.	8dd/L	4a\	ro-	.	.
8BB\	.	8c#/J	.	.	.	8BB/	8BB\	do	.	8cc#/J	.	.	.	.
*	*	*	*v	*v	*	*	*	*	*	*	*	*	*	*
=156	=156	=156	=156	=156	=156	=156	=156	=156	=156	=156	=156	=156	=156
(2E\	.	(4B/	2B\)	.	2E/	2E\	pra-	.	(4b/	2a\	-da-	.	.
.	.	(4c#/)	.	.	.	.	.	.	4cc#/)	.	.	.	.
*	*	*v	*v	*	*	*	*	*	*	*	*	*	*
=157	=157	=157	=157	=157	=157	=157	=157	=157	=157	=157	=157	=157
!	!	!	!	!	!	!	!LO:DY:a	!	!	!	!	!
4D#X\)	.	4A/) 4B	.	4D#X/	4D#\	-cy!	<	4b/	4a\	-cy	.	.
4BB\	.	4A/ 4B 4d#X	<	4BB/	4BB\	to	.	4dd#X/	4a\ 4b	do	.	.
=158	=158	=158	=158	=158	=158	=158	=158	=158	=158	=158	=158	=158
*	*	*^	*	*	*	*	*	*	*	*	*	*
!	!	!LO:TX:t=P:problem=mixed beam	!	!	!	!	!	!	!	!	!	!	!
8Dn\	.	8G#X/L 8B 8f#	4rcyy	.	4.Dn/	4.D\	na-	[	2ff#/	2g#X\ 2b	pra-	.	.
8r	.	16ff#/L	.	.	.	.	.	.	.	.	.	.	.
.	.	16gg#X/JJ	.	.	.	.	.	.	.	.	.	.	.
4DD/ 4D	.	(8ff#/L	4g#X\ 4b	.	.	.	.	.	.	.	.	.	.
.	.	16ff#/L	.	.	8D/	8D\	-szem	.	.	.	.	.	.
.	.	16gg#/JJ	.	.	.	.	.	.	.	.	.	.	.
=159	=159	=159	=159	=159	=159	=159	=159	=159	=159	=159	=159	=159	=159
*^	*	*	*	*	*	*	*	*	*	*	*	*	*
8C#/L	8CC#\	.	8g\) 8b-X 8ee	4rcyy	[	8C#/L	8C#\L	ha-	.	4ee/	4gn\ 4b-X	-cy!	.	.
8BB/	8rEE	.	8r	.	.	8BB/J	8BB\J	.	.	.	.	.	.	.
8C#/	4rEE	.	4raayy	4G\ [4A	.	8C#/	8C#\	-słem	.	4a/	4g\	do	.	.
8AA/J	.	.	.	.	.	8AA/	8AA\	ro-	.	.	.	.	.	.
*v	*v	*	*	*	*	*	*	*	*	*	*	*	*	*
=160	=160	=160	=160	=160	=160	=160	=160	=160	=160	=160	=160	=160	=160
8Cn/	.	8re	8F#\ 8A]	.	2F#/	2Cn\	-da-	.	2ee/	2a\	pra-	.	.
8r	.	(16ee/LL	8r	.	.	.	.	.	.	.	.	.	.
.	.	16ff#/JJ	.	.	.	.	.	.	.	.	.	.	.
4CCn/ 4C	.	8ee/L)	4a\	.	.	.	.	.	.	.	.	.	.
.	.	(16ee/L	.	.	.	.	.	.	.	.	.	.	.
.	.	16ff#/JJ	.	.	.	.	.	.	.	.	.	.	.
*	*	*v	*v	*	*	*	*	*	*	*	*	*	*
=161	=161	=161	=161	=161	=161	=161	=161	=161	=161	=161	=161	=161
4BBB/ 4BB	.	4a\) 4dd#X	f	4F#/	4BB\	-cy	.	4dd#X/	4a\	-cy	.	.
4BB\ 4B	.	4a\ 4dd# 4aa	.	4r	4rEEyy	.	.	4r	4rcyy	.	.	.
*	*	*	*	*v	*v	*	*	*	*	*	*	*
*	*	*	*	*	*	*	*v	*v	*	*	*
=162	=162	=162	=162	=162	=162	=162	=162	=162	=162	=162
4EE/	.	8g\L 8cc# 8ee	.	2r	.	.	2r	.	.	.
.	.	(16ee\L	p	.	.	.	.	.	.	.
.	.	16ff#\JJ	.	.	.	.	.	.	.	.
4E\	.	(4g\) [4cc# [4ee	.	.	.	.	.	.	.	.
=163	=163	=163	=163	=163	=163	=163	=163	=163	=163	=163
*	*	*^	*	*	*	*	*	*	*	*
4EE/	.	8a\L) 8cc#] 8ee]	4rcyy	.	2r	.	.	2r	.	.	.
.	.	(16ee\L	.	.	.	.	.	.	.	.	.
.	.	16ff#\JJ	.	.	.	.	.	.	.	.	.
4E\	.	8dd/L)	[4a\	.	.	.	.	.	.	.	.
.	.	(8cc#/J	.	.	.	.	.	.	.	.	.
=164	=164	=164	=164	=164	=164	=164	=164	=164	=164	=164	=164
4EE/	.	8b/L	4a\]	<	2r	.	.	2r	.	.	.
!	!	!	!	!	!LO:LB:g=original	!	!	!LO:LB:g=original	!	!	!
.	.	16b/L	.	.	.	.	.	.	.	.	.
.	.	16cc#/JJ)	.	.	.	.	.	.	.	.	.
4E\	.	8b'/L	4d#X\	.	.	.	.	.	.	.	.
!LO:LB:g=original	!	!	!	!	!	!	!	!	!	!	!
.	.	8a'/J	.	.	.	.	.	.	.	.	.
!	!	!LO:LB:g=original	!	!	!	!	!	!	!	!	!
=165	=165	=165	=165	=165	=165	=165	=165	=165	=165	=165	=165
*	*	*	*	*	*^	*	*	*^	*	*	*
4EE/ 4E	.	(16g#X/LL	4d\	.	4r	4rEEyy	.	.	4r	4rcyy	.	.	.
.	.	16a/	.	.	.	.	.	.	.	.	.	.	.
.	.	16b/	.	[	.	.	.	.	.	.	.	.	.
.	.	16cc#/JJ	.	.	.	.	.	.	.	.	.	.	.
(4D\ 4E 4G#X	.	16dd\LL	4rcyy	f	4E/	4D\	.	.	4ff#/	4g#X\ 4b	Do	.	f
.	.	16ee\	.	.	.	.	.	.	.	.	.	.	.
.	.	16ff#\	.	.	.	.	.	.	.	.	.	.	.
.	.	16gg#X\JJ	.	.	.	.	.	.	.	.	.	.	.
=166	=166	=166	=166	=166	=166	=166	=166	=166	=166	=166	=166	=166	=166
4C#\) 4E 4A	.	8aa\L)	4rcyy	.	2E/	2C#\	.	.	2ee/	2a\ 2cc#	pra-	.	>
.	.	(16ee\L	.	.	.	.	.	.	.	.	.	.	.
.	.	16ff#\JJ)	.	.	.	.	.	.	.	.	.	.	.
4E\	.	[4ee/	[4a\ [4cc#	p	.	.	.	.	.	.	.	.	.
=167	=167	=167	=167	=167	=167	=167	=167	=167	=167	=167	=167	=167	=167
4EE/	.	8ee/L]	4a\] 4cc#]	.	4E/	4AA\	.	.	4cc#/	4a\	-cy!	.	]
.	.	(16ee/L	.	.	.	.	.	.	.	.	.	.	.
.	.	16ff#/JJ	.	.	.	.	.	.	.	.	.	.	.
4E\	.	8dd/L)	[4a\	.	4r	4rEEyy	.	.	4r	4rcyy	.	.	.
.	.	8cc#/J	.	.	.	.	.	.	.	.	.	.	.
*	*	*	*	*	*v	*v	*	*	*	*	*	*	*
*	*	*	*	*	*	*	*	*v	*v	*	*	*
=168	=168	=168	=168	=168	=168	=168	=168	=168	=168	=168	=168
4EE/	.	8b/L	4a\]	.	2r	.	.	2r	.	.	.
.	.	16b/L	.	.	.	.	.	.	.	.	.
.	.	16cc#/JJ	.	.	.	.	.	.	.	.	.
4E\	.	8b/L	(4d#X\	.	.	.	.	.	.	.	.
.	.	8a/J	.	.	.	.	.	.	.	.	.
=169	=169	=169	=169	=169	=169	=169	=169	=169	=169	=169	=169
*	*	*	*	*	*^	*	*	*^	*	*	*
4EE/	.	16g#X/LL	4dn\)	<	4r	4rEEyy	.	.	4r	4rcyy	.	.	.
.	.	16a/	.	.	.	.	.	.	.	.	.	.	.
.	.	16b/	.	.	.	.	.	.	.	.	.	.	.
.	.	16cc#/JJ	.	.	.	.	.	.	.	.	.	.	.
4D\ 4E 4G#X	.	16dd/LL	4rcyy	.	4E/	4D\	.	.	4ff#/	4g#X\ 4b	Do	.	f
.	.	16ee/	.	.	.	.	.	.	.	.	.	.	.
.	.	16ff#/	.	.	.	.	.	.	.	.	.	.	.
.	.	16gg#X/JJ	.	[	.	.	.	.	.	.	.	.	.
*	*	*v	*v	*	*	*	*	*	*	*	*	*	*
=170	=170	=170	=170	=170	=170	=170	=170	=170	=170	=170	=170	=170
4C#\ 4E 4A	.	8aa\L	f	2E/	2C#\	.	.	2ee/	2a\ 2cc#	pra-	.	.
.	.	(16ee\L	.	.	.	.	.	.	.	.	.	.
.	.	16ff#\JJ	.	.	.	.	.	.	.	.	.	.
4E\	.	[4a\) [4cc# [4ee	.	.	.	.	.	.	.	.	.	.
=171	=171	=171	=171	=171	=171	=171	=171	=171	=171	=171	=171	=171
4EE/	.	(16a\LL] 16cc#] 16ee]	.	4E/	4AA\	.	.	4cc#/	4a\	-cy	.	.
.	.	16dd\	.	.	.	.	.	.	.	.	.	.
.	.	16cc#\	.	.	.	.	.	.	.	.	.	.
.	.	16b\JJ	.	.	.	.	.	.	.	.	.	.
4F#\ 4A 4B 4d#X	.	16a\LL	.	4A/	4F#\	.	.	4dd#X/	4b\	do	.	.
.	.	16cc#\	.	.	.	.	.	.	.	.	.	.
.	.	16b\	.	.	.	.	.	.	.	.	.	.
.	.	16a\JJ	.	.	.	.	.	.	.	.	.	.
=172	=172	=172	=172	=172	=172	=172	=172	=172	=172	=172	=172	=172
*^	*	*	*	*	*	*	*	*	*	*	*	*
(2a/	[2E\ 2c# 2e	.	8cc#\L)	.	2A/	2E\	.	.	2ff#/	2cc#\	pra-	.	.
!LO:PB:g=original	!LO:PB:g=original	!	!	!	!LO:PB:g=original	!LO:PB:g=original	!	!	!LO:PB:g=original	!LO:PB:g=original	!	!	!
.	.	.	(16ee\L	.	.	.	.	.	.	.	.	.	.
.	.	.	16ff#\JJ	.	.	.	.	.	.	.	.	.	.
.	.	.	[4ee\)	.	.	.	.	.	.	.	.	.	.
!	!	!	!LO:PB:g=original	!	!	!	!	!	!	!	!	!	!
=173	=173	=173	=173	=173	=173	=173	=173	=173	=173	=173	=173	=173	=173
4c#/) 4e 4g	4E\]	.	16ee\LL]	.	4A/	4E\	.	.	4ee/	4cc#\	-cy	.	.
.	.	.	(16dd\	.	.	.	.	.	.	.	.	.	.
.	.	.	16cc#\	.	.	.	.	.	.	.	.	.	.
.	.	.	16b\JJ	.	.	.	.	.	.	.	.	.	.
4F#\ 4A 4B 4d#X	4rEEyy	.	16a\LL	.	4A/	4F#\	.	.	4dd#X/	4b\	do	.	.
.	.	.	16cc#\	.	.	.	.	.	.	.	.	.	.
.	.	.	16b\	.	.	.	.	.	.	.	.	.	.
.	.	.	16a\JJ)	.	.	.	.	.	.	.	.	.	.
*v	*v	*	*	*	*	*	*	*	*	*	*	*	*
=174	=174	=174	=174	=174	=174	=174	=174	=174	=174	=174	=174	=174
4E\ 4A 4c# 4f#	.	8cc#\L	.	2A/	2E\	.	.	2ff#/	2cc#\	pra-	.	.
.	.	(16ee\L	.	.	.	.	.	.	.	.	.	.
.	.	16ff#\JJ)	.	.	.	.	.	.	.	.	.	.
4E\	.	4a\ 4cc# [4ee	.	.	.	.	.	.	.	.	.	.
=175	=175	=175	=175	=175	=175	=175	=175	=175	=175	=175	=175	=175
4EE/	.	16a\LL 16cc# 16ee]	.	4A/	4E\	.	.	4ee/	4cc#\	-cy!	.	.
.	.	(16dd\	.	.	.	.	.	.	.	.	.	.
.	.	16b\	.	.	.	.	.	.	.	.	.	.
.	.	16dd\JJ	.	.	.	.	.	.	.	.	.	.
4E\ 4A 4c#	.	16ee\LL	.	4A/	4D\	.	.	4cc#/	4cc#\	do	.	.
.	.	16ff#\	.	.	.	.	.	.	.	.	.	.
.	.	16gg#X\	.	.	.	.	.	.	.	.	.	.
.	.	16aa\JJ	.	.	.	.	.	.	.	.	.	.
=176	=176	=176	=176	=176	=176	=176	=176	=176	=176	=176	=176	=176
4E\ 4A 4B	.	16bb\LL	.	(2A/	[2E\	.	.	[2ee/	(2b\	pra-	.	.
.	.	16aa\	.	.	.	.	.	.	.	.	.	.
.	.	16gg#X\	.	.	.	.	.	.	.	.	.	.
.	.	16ff#\JJ	.	.	.	.	.	.	.	.	.	.
4EE/ 4E	.	16ee\LL	.	.	.	.	.	.	.	.	.	.
.	.	16ff#\	.	.	.	.	.	.	.	.	.	.
.	.	16gg#\	.	.	.	.	.	.	.	.	.	.
.	.	16aa\JJ	.	.	.	.	.	.	.	.	.	.
=177	=177	=177	=177	=177	=177	=177	=177	=177	=177	=177	=177	=177
4E\ 4G#X 4d 4e	.	16bb\LL	.	2G#X/)	2E\]	.	.	2ee/]	2dd\)	.	.	.
.	.	16aa\	.	.	.	.	.	.	.	.	.	.
.	.	16gg#X\	.	.	.	.	.	.	.	.	.	.
.	.	16aa\JJ	.	.	.	.	.	.	.	.	.	.
4EE/ 4E	.	16bb\LL	.	.	.	.	.	.	.	.	.	.
.	.	16ddd\	.	.	.	.	.	.	.	.	.	.
.	.	16ccc#\	.	.	.	.	.	.	.	.	.	.
.	.	16bb\JJ)	.	.	.	.	.	.	.	.	.	.
=178	=178	=178	=178	=178	=178	=178	=178	=178	=178	=178	=178	=178
4A\ 4c# 4e	.	8eee\L	.	4A/	4AA\	.	.	4ee/	4cc#\	-cy	.	.
.	.	(16eee\L	ff	.	.	.	.	.	.	.	.	.
.	.	16fff#\JJ	.	.	.	.	.	.	.	.	.	.
4AA/	.	[4aa\) [4ccc# [4eee	.	4r	4rEEyy	.	.	4r	4rcyy	.	.	.
*	*	*	*	*v	*v	*	*	*	*	*	*	*
*	*	*	*	*	*	*	*v	*v	*	*	*
=179	=179	=179	=179	=179	=179	=179	=179	=179	=179	=179
4AAA/	.	8aa\L] 8ccc#] 8eee]	.	2r	.	.	2r	.	.	.
!	!	!	!	!	!LO:LB:g=original	!	!	!LO:LB:g=original	!	!
.	.	(16eee\L	.	.	.	.	.	.	.	.
.	.	16fff#\JJ	.	.	.	.	.	.	.	.
4AA/	.	[4aa\) [4ccc# [4eee	.	.	.	.	.	.	.	.
!LO:LB:g=original	!	!LO:LB:g=original	!	!	!	!	!	!	!	!
=180	=180	=180	=180	=180	=180	=180	=180	=180	=180	=180
4AAA/	.	8aa\L] 8ccc#] 8eee]	.	2r	.	.	2r	.	.	.
.	.	(16ddd\L	.	.	.	.	.	.	.	.
.	.	16ccc#\JJ	.	.	.	.	.	.	.	.
[4AA\ [4A	.	16bb\LL	.	.	.	.	.	.	.	.
.	.	16aa\	.	.	.	.	.	.	.	.
.	.	16gg#X\	.	.	.	.	.	.	.	.
.	.	16ff#\JJ	.	.	.	.	.	.	.	.
=181	=181	=181	=181	=181	=181	=181	=181	=181	=181	=181
4AA\] 4A]	.	16ee\LL	.	2r	.	.	2r	.	.	.
.	.	16dd\	.	.	.	.	.	.	.	.
.	.	16cc#\	.	.	.	.	.	.	.	.
.	.	16b\JJ	.	.	.	.	.	.	.	.
4FF#/ 4F#	.	16a\LL	.	.	.	.	.	.	.	.
.	.	16g#X\	.	.	.	.	.	.	.	.
.	.	16a\	.	.	.	.	.	.	.	.
.	.	16b\JJ	.	.	.	.	.	.	.	.
=182	=182	=182	=182	=182	=182	=182	=182	=182	=182	=182
4CC#/ 4C#	.	4e/) 4cc#	.	2r	.	.	2r	.	.	.
4r	.	4r	.	.	.	.	.	.	.	.
=183	=183	=183	=183	=183	=183	=183	=183	=183	=183	=183
*	*	*	*	*^	*	*	*^	*	*	*
2r	.	2r	.	2C#/	2C#\	Do	p	2ee/	2g#X\	Do	.	p
=184	=184	=184	=184	=184	=184	=184	=184	=184	=184	=184	=184	=184
2r	.	2r	.	[2F#/	2F#\	pra-	.	4dd#X/	4a\	niej	.	.
.	.	.	.	.	.	.	.	4cc#/	4a\	jak	.	.
=185	=185	=185	=185	=185	=185	=185	=185	=185	=185	=185	=185	=185
2r	.	2r	.	2F#/]	2F#\	.	.	4b#X/	4a\	je-	.	.
.	.	.	.	.	.	.	.	4dd#X/	4a\	-den	.	.
=186	=186	=186	=186	=186	=186	=186	=186	=186	=186	=186	=186	=186
2r	.	2r	.	2E/	[2E\	-cy!	.	2cc#/	2g#X\	mąż	.	.
=187	=187	=187	=187	=187	=187	=187	=187	=187	=187	=187	=187	=187
2r	.	2r	.	4r	4rEE]	.	.	2a#X/	2f##X\	gar-	.	.
.	.	.	.	4D#X/	4D#\	gar-	.	.	.	.	.	.
=188	=188	=188	=188	=188	=188	=188	=188	=188	=188	=188	=188	=188
*	*	*^	*	*	*	*	*	*	*	*	*	*
!	!	!	!	!	!	!	!	!	!	!	!	!	!LO:DY:a
2r	.	8rg	2rdd	.	4.D#X/	4.GG#X\	-nij-	pp	4.b#X/	4.g#X\	-nij-	.	pp
.	.	(16gg#X/LL	.	.	.	.	.	.	.	.	.	.	.
.	.	16aa/JJ	.	.	.	.	.	.	.	.	.	.	.
.	.	[4gg#/)	.	.	.	.	.	.	.	.	.	.	.
.	.	.	.	.	8D#/	8GG#\	-my	.	8b#/	8g#\	-my	.	.
=189	=189	=189	=189	=189	=189	=189	=189	=189	=189	=189	=189	=189	=189
4r	.	8gg#/L]	2rdd	.	4D#X/	4GG#X\	się	.	4b#X/	4g#X\	się	.	.
.	.	16gg#X/L	.	.	.	.	.	.	.	.	.	.	.
.	.	16aa/JJ	.	.	.	.	.	.	.	.	.	.	.
!LO:TX:b:i:t=poco marc.	!	!	!	!	!	!	!	!	!	!	!	!	!
4B#X'\	.	[4ff#/	.	.	4r	4rEEyy	.	.	4r	4rcyy	.	.	.
*	*	*	*	*	*v	*v	*	*	*	*	*	*	*
*	*	*	*	*	*	*	*	*v	*v	*	*	*
=190	=190	=190	=190	=190	=190	=190	=190	=190	=190	=190	=190
4c#'\	.	8ff#/L]	2rff	.	2r	.	.	2r	.	.	.
!	!	!	!	!	!LO:LB:g=original	!	!	!LO:LB:g=original	!	!	!
.	.	16ff#/L	.	.	.	.	.	.	.	.	.
.	.	16gg#X/JJ	.	.	.	.	.	.	.	.	.
(4G\	.	[4ee/	.	.	.	.	.	.	.	.	.
!LO:LB:g=original	!	!LO:LB:g=original	!	!	!	!	!	!	!	!	!
=191	=191	=191	=191	=191	=191	=191	=191	=191	=191	=191	=191
4A#X\	.	8ee/L]	4r	.	2r	.	.	2r	.	.	.
.	.	(16ee/L	.	.	.	.	.	.	.	.	.
.	.	16ff#/JJ	.	.	.	.	.	.	.	.	.
4e\	.	8ddn/L)	(4gn\ 4a#X	.	.	.	.	.	.	.	.
.	.	8cc#/J	.	.	.	.	.	.	.	.	.
=192	=192	=192	=192	=192	=192	=192	=192	=192	=192	=192	=192
4d\)	.	4ff#/	4f#\) 4a	.	2r	.	.	2r	.	.	.
4r	.	4r	4rcyy	.	.	.	.	.	.	.	.
*	*	*v	*v	*	*	*	*	*	*	*	*
=193	=193	=193	=193	=193	=193	=193	=193	=193	=193	=193
*	*	*	*	*^	*	*	*^	*	*	*
!	!	!	!	!	!	!	!LO:DY:a	!	!	!	!	!LO:DY:a
2r	.	2r	.	2BB/	2BB\	By	p	2dd/	2f#\	By	.	p
=194	=194	=194	=194	=194	=194	=194	=194	=194	=194	=194	=194	=194
2r	.	2r	.	[2E/	2E\	z gła-	.	4cc#/	4gn\	z gła-	.	.
.	.	.	.	.	.	.	.	4b/	4g\	-zów	.	.
=195	=195	=195	=195	=195	=195	=195	=195	=195	=195	=195	=195	=195
2r	.	2r	.	2E/]	2E\	.	.	(4a#X/	2g\	zbaw-	.	.
.	.	.	.	.	.	.	.	4cc#/)	.	.	.	.
=196	=196	=196	=196	=196	=196	=196	=196	=196	=196	=196	=196	=196
2r	.	2r	.	2D/	[2D\	-zów	.	2b/	2f#\	-czą	.	.
=197	=197	=197	=197	=197	=197	=197	=197	=197	=197	=197	=197	=197
2r	.	2r	.	4r	4rEE]	.	.	2g#X/	2e#X\	wy-	.	.
.	.	.	.	4C#/	4C#\	wy-	.	.	.	.	.	.
=198	=198	=198	=198	=198	=198	=198	=198	=198	=198	=198	=198	=198
!	!	!	!	!	!	!	!LO:DY:a	!	!	!	!	!LO:DY:a
2r	.	8r	.	4.C#/	4.FF#\	-krze-	pp	4.a#X/	4.f#\	-krze-	.	pp
.	.	(16ff#/LL	p	.	.	.	.	.	.	.	.	.
.	.	16gg/JJ	.	.	.	.	.	.	.	.	.	.
.	.	[4ff#/)	.	.	.	.	.	.	.	.	.	.
.	.	.	.	8C#/	8FF#\	-sać	.	8a#/	8f#\	-sać	.	.
=199	=199	=199	=199	=199	=199	=199	=199	=199	=199	=199	=199	=199
*	*	*^	*	*	*	*	*	*	*	*	*	*
4r	.	8ff#/L]	2rg	.	4C#/	4FF#\	skrę	.	4a#X/	4f#\	skrę.	.	.
.	.	(16ff#/L	.	.	.	.	.	.	.	.	.	.	.
.	.	16gg/JJ	.	.	.	.	.	.	.	.	.	.	.
!LO:TX:b:i:t=poco marcato.	!	!	!	!	!	!	!	!	!	!	!	!	!
(4A#X'\	.	[4ee/)	.	.	4r	4rEEyy	.	.	4r	4rcyy	.	.	.
*	*	*	*	*	*v	*v	*	*	*	*	*	*	*
*	*	*	*	*	*	*	*	*v	*v	*	*	*
=200	=200	=200	=200	=200	=200	=200	=200	=200	=200	=200	=200
4B'\)	.	8ee/L]	2rg	.	2r	.	.	2r	.	.	.
.	.	(16ff#/L	.	.	.	.	.	.	.	.	.
.	.	16ee/JJ	.	.	.	.	.	.	.	.	.
(4F#\	.	[4dd/	.	.	.	.	.	.	.	.	.
=201	=201	=201	=201	=201	=201	=201	=201	=201	=201	=201	=201
4G#X\	.	8dd/L])	4r	.	2r	.	.	2r	.	.	.
!	!	!	!	!	!LO:PB:g=original	!	!	!LO:PB:g=original	!	!	!
.	.	(16dd/L	.	.	.	.	.	.	.	.	.
.	.	16ee/JJ	.	.	.	.	.	.	.	.	.
4d\)	.	8cc#/L)	4fn\ 4g#X	.	.	.	.	.	.	.	.
.	.	8b'/J	.	.	.	.	.	.	.	.	.
!LO:PB:g=original	!	!LO:PB:g=original	!	!	!	!	!	!	!	!	!
*	*	*v	*v	*	*	*	*	*	*	*	*
=202	=202	=202	=202	=202	=202	=202	=202	=202	=202	=202
*	*	*	*	*^	*	*	*^	*	*	*
4c#\	.	8e/L 8a	p	2rBB	2rF	.	.	2rg	2rff	.	.	.
.	.	16aa\L	.	.	.	.	.	.	.	.	.	.
.	.	16bb\JJ	.	.	.	.	.	.	.	.	.	.
4AA/	.	[4aa\	.	.	.	.	.	.	.	.	.	.
=203	=203	=203	=203	=203	=203	=203	=203	=203	=203	=203	=203	=203
!	!	!LO:TX:a:i:t=poco a poco	!	!	!	!	!	!	!	!	!	!
!	!	!LO:TX:b:i:t=poco a poco	!	!	!	!	!	!	!	!	!	!
4AAA/	.	8aa\L]	.	2rBB	2rF	.	.	2r	4rdd	.	.	.
.	.	(16aa\L	.	.	.	.	.	.	.	.	.	.
.	.	16bb\JJ	.	.	.	.	.	.	.	.	.	.
!	!	!	!LO:DY:a	!	!	!	!	!	!	!	!	!
4AA/	.	[4aa\)	< <	.	.	.	.	.	4a\	Do	.	.
=204	=204	=204	=204	=204	=204	=204	=204	=204	=204	=204	=204	=204
4AAA/	.	8aa\L]	.	2rBB	2rF	.	.	2r	2dd\	pra-	.	.
.	.	(16aa\L	.	.	.	.	.	.	.	.	.	.
.	.	16bb\JJ	.	.	.	.	.	.	.	.	.	.
4AA/	.	[4aa\)	.	.	.	.	.	.	.	.	.	.
=205	=205	=205	=205	=205	=205	=205	=205	=205	=205	=205	=205	=205
!	!	!	!	!LO:TX:a:i:t=Io	!	!	!	!	!	!	!	!
4AAA/	.	8aa\L]	.	4rBB	2r	.	.	2r	4b\	-cy!	.	.
.	.	(16aa\L	.	.	.	.	.	.	.	.	.	.
.	.	16bb\JJ	.	.	.	.	.	.	.	.	.	.
!	!	!LO:TX:a:i:t=e marcato	!	!	!	!	!	!	!	!	!	!
4AA/	.	[4aa\)	[ [	4D/	.	do	.	.	8rff	.	.	.
.	.	.	.	.	.	.	.	.	8b\	do	.	.
=206	=206	=206	=206	=206	=206	=206	=206	=206	=206	=206	=206	=206
4AAA/	.	8aa\L]	.	2G/	2r	pra-	.	2r	2ee\	pra-	.	.
.	.	(16aa\L	.	.	.	.	.	.	.	.	.	.
.	.	16bb\JJ	.	.	.	.	.	.	.	.	.	.
4AA/	.	[4aa\)	.	.	.	.	.	.	.	.	.	.
=207	=207	=207	=207	=207	=207	=207	=207	=207	=207	=207	=207	=207
4AAA/	.	8aa\L]	.	4F#/	2r	-cy	.	4rff	4dd\	cy	.	.
.	.	(16aa\L	.	.	.	.	.	.	.	.	.	.
.	.	16bb\JJ	.	.	.	.	.	.	.	.	.	.
4AA/	.	[4aa\)	.	8rGG	.	.	.	4ccn/	8r	-Do	.	.
.	.	.	.	8E/	.	do	.	.	8g\	do	.	.
=208	=208	=208	=208	=208	=208	=208	=208	=208	=208	=208	=208	=208
4AAA/	.	8aa\L]	.	2A/	2r	pra-	.	2ff#/	2ccn\	-pra-	.	.
.	.	(16aa\L	.	.	.	.	.	.	.	.	.	.
.	.	16bb\JJ	.	.	.	.	.	.	.	.	.	.
4AA/	.	[4aa\)	.	.	.	.	.	.	.	.	.	.
=209	=209	=209	=209	=209	=209	=209	=209	=209	=209	=209	=209	=209
4AAA/	.	8aa\L]	.	4G/	2r	-cy	.	4ee/	4b\	cy	.	.
.	.	(16aa\L	.	.	.	.	.	.	.	.	.	.
.	.	16bb\JJ	.	.	.	.	.	.	.	.	.	.
4AA/	.	[4aa\)	.	4F#/	.	do	.	8r	4a\	do	.	.
.	.	.	.	.	.	.	.	8dd#X/	.	do	.	.
=210	=210	=210	=210	=210	=210	=210	=210	=210	=210	=210	=210	=210
4AAA/	.	8aa\L]	.	(2E/	2r	pra	.	([2gg/	(4g\	-pra-	.	.
!	!	!	!	!LO:LB:g=original	!	!	!	!LO:LB:g=original	!	!	!	!
.	.	(16aa\L	.	.	.	.	.	.	.	.	.	.
.	.	16bb\JJ	.	.	.	.	.	.	.	.	.	.
4AA/	.	[4aa\)	.	.	.	.	.	.	4b\	.	.	.
!LO:LB:g=original	!	!LO:LB:g=original	!	!	!	!	!	!	!LO:LB:g=original	!	!	!
=211	=211	=211	=211	=211	=211	=211	=211	=211	=211	=211	=211	=211
!	!	!	!	!LO:TX:b:i:t=IIo	!	!	!	!	!	!	!	!
4AAA/	.	8aa\L]	.	2A/)	4r	.	.	4gg/]	4cc#X\	.	.	.
.	.	(16aa\L	.	.	.	.	.	.	.	.	.	.
.	.	16bb\JJ	.	.	.	.	.	.	.	.	.	.
4AA/	.	[4aa\)	.	.	4BB\	Do	.	4ff#/)	4dd#X\)	.	.	.
=212	=212	=212	=212	=212	=212	=212	=212	=212	=212	=212	=212	=212
4AAA/	.	8aa\L]	.	4G/	2E\	pra-	.	4ee/	4b\	cy	.	.
.	.	(16aa\L	.	.	.	.	.	.	.	.	.	.
.	.	16bb\JJ	.	.	.	.	.	.	.	.	.	.
4AA/	.	[4aa\)	.	4r	.	.	.	4r	4rcyy	.	.	.
*	*	*	*	*	*	*	*	*v	*v	*	*	*
=213	=213	=213	=213	=213	=213	=213	=213	=213	=213	=213	=213
4AAA/	.	8aa\L]	.	4r	4D\	-cy	.	2r	.	.	.
.	.	(16aa\L	.	.	.	.	.	.	.	.	.
.	.	16bb\JJ	.	.	.	.	.	.	.	.	.
4AA/	.	[4aa\)	.	4E/	8r	.	.	.	.	.	.
.	.	.	.	.	8C#\	do	.	.	.	.	.
=214	=214	=214	=214	=214	=214	=214	=214	=214	=214	=214	=214
4AAA/	.	8aa\L]	.	2A/	2F#\	pra-	.	2r	.	.	.
.	.	(16aa\L	.	.	.	.	.	.	.	.	.
.	.	16bb\JJ	.	.	.	.	.	.	.	.	.
4AA/	.	[4aa\)	.	.	.	.	.	.	.	.	.
=215	=215	=215	=215	=215	=215	=215	=215	=215	=215	=215	=215
*	*	*	*	*	*	*	*	*^	*	*	*
4AAA/	.	8aa\L]	.	4G/	4E\	-cy	.	2r	4r	.	.	.
.	.	(16aa\L	.	.	.	.	.	.	.	.	.	.
.	.	16bb\JJ	.	.	.	.	.	.	.	.	.	.
4AA/	.	[4aa\)	.	4F#/	4D\	do	.	.	4b\	Do	.	<
=216	=216	=216	=216	=216	=216	=216	=216	=216	=216	=216	=216	=216
4AAA/	.	8aa\L]	<	(4E/	(4C#\	pra-	.	2r	2ee\	pra-	.	.
.	.	(16aa\L	.	.	.	.	.	.	.	.	.	.
.	.	16bb\JJ	.	.	.	.	.	.	.	.	.	.
4G\ 4B-X 4e	.	[4aa\)	.	4B-X/)	4G\)	.	.	.	.	.	.	.
=217	=217	=217	=217	=217	=217	=217	=217	=217	=217	=217	=217	=217
*^	*	*	*	*	*	*	*	*	*	*	*	*
[4d/	4F#\ 4A	.	8aa\L]	.	4A/	4F#\	-cy	.	4raa	4dd\	cy	.	[
.	.	.	(16aa\L	.	.	.	.	.	.	.	.	.	.
.	.	.	16bb\JJ	.	.	.	.	.	.	.	.	.	.
8d/L]	4F#\ 4A	.	[4aa\)	[	4G/	4E\	do	.	4ee/	8rdd	-do	.	.
8c#/J	.	.	.	.	.	.	.	.	.	8cc#\	do	.	.
*v	*v	*	*	*	*	*	*	*	*	*	*	*	*
=218	=218	=218	=218	=218	=218	=218	=218	=218	=218	=218	=218	=218
4D\ 4F# 4d	.	8aa\L]	.	(4F#/	(4D\	pra-	.	2aa/	2ff#\	-pra-	.	.
.	.	(16ddd\L	.	.	.	.	.	.	.	.	.	.
.	.	16eee\JJ	.	.	.	.	.	.	.	.	.	.
*clefG2	*	*	*	*	*	*	*	*	*	*	*	*
4cn/ 4e-X 4a	.	[4ddd\)	.	4e-X/)	4cn\)	.	.	.	.	.	.	.
=219	=219	=219	=219	=219	=219	=219	=219	=219	=219	=219	=219	=219
4B/ 4d 4g	.	8ddd\L]	.	4d/	4B\	-cy	.	4gg/	4gg\	cy	.	.
.	.	(16ddd\L	.	.	.	.	.	.	.	.	.	.
.	.	16eee\JJ	.	.	.	.	.	.	.	.	.	.
4A/ 4c# 4d#X	.	[4ddd\)	.	4cn/	4A\	do	.	8rff	4dd#X\	do	.	.
!LO:LB:g=original	!	!	!LO:LB:g=original	!	!LO:LB:g=original	!LO:LB:g=original	!	!	!	!LO:LB:g=original	!	!
.	.	.	.	.	.	.	.	8ff#/	.	do	.	.
!	!	!	!	!	!	!	!	!LO:LB:g=original	!	!	!	!
*clefF4	*	*	*	*	*	*	*	*	*	*	*	*
=220	=220	=220	=220	=220	=220	=220	=220	=220	=220	=220	=220	=220
2G/ 2B 2d 2f#	.	8ddd\L]	.	2B/	2G\	.	.	2ff#/	2ddn\	.	.	.
.	.	(16ddd\L	.	.	.	.	.	.	.	.	.	.
.	.	16eee\JJ	.	.	.	.	.	.	.	.	.	.
.	.	4ddd\)	.	.	.	.	.	.	.	.	.	.
=221	=221	=221	=221	=221	=221	=221	=221	=221	=221	=221	=221	=221
8G/ 8B 8d 8e	.	8ddd\	.	4B/	4G\	.	.	4ee/	4dd\	.	.	.
8r	.	8r	.	.	.	.	.	.	.	.	.	.
4EE/ 4E	.	4g/ 4b 4gg	.	4r	4rEEyy	.	.	4r	4ryy	.	.	.
*	*	*	*	*v	*v	*	*	*	*	*	*	*
*	*	*	*	*	*	*	*v	*v	*	*	*
=222	=222	=222	=222	=222	=222	=222	=222	=222	=222	=222
4CC#/ 4C#	.	2e/ 2cc# 2ee	.	2r	.	.	2r	.	.	.
4GG/ 4G	.	.	.	.	.	.	.	.	.	.
=223	=223	=223	=223	=223	=223	=223	=223	=223	=223	=223
*	*	*^	*	*	*	*	*	*	*	*
4FF#/ 4F#	.	(4.dd/	2f#\ 2a#X	.	2r	.	.	2r	.	.	.
4EE/ 4E	.	.	.	.	.	.	.	.	.	.	.
.	.	8cc#/	.	.	.	.	.	.	.	.	.
*	*	*v	*v	*	*	*	*	*	*	*	*
=224	=224	=224	=224	=224	=224	=224	=224	=224	=224	=224
4DD/ 4D	.	4f#/) 4b 4ff#	.	2r	.	.	2r	.	.	.
4CC#/ 4C#	.	4a#X/ 4ee 4ff# 4aa#X	.	.	.	.	.	.	.	.
=225	=225	=225	=225	=225	=225	=225	=225	=225	=225	=225
*	*	*	*	*^	*	*	*^	*	*	*
4BBB/ 4BB	.	4b/ 4dd 4ff# 4bb	.	4r	4rEEyy	.	.	4r	4rcyy	.	.	.
4r	.	4r	.	4F#/	4BB\	.	.	4dd/	4b\	Do	.	ff
=226	=226	=226	=226	=226	=226	=226	=226	=226	=226	=226	=226	=226
2r	.	2r	.	2Fn/	2D\	.	.	2cc#/	2a\	pra-	.	.
=227	=227	=227	=227	=227	=227	=227	=227	=227	=227	=227	=227	=227
4r	.	4r	.	4Fn/	4D\	.	.	4b/	4a\	-cy	.	.
4DD/ 4D	.	4g#X/ 4ee 4gg#X	.	4r	4rEEyy	.	.	4r	4rcyy	.	.	.
*	*	*	*	*v	*v	*	*	*	*	*	*	*
*	*	*	*	*	*	*	*v	*v	*	*	*
=228	=228	=228	=228	=228	=228	=228	=228	=228	=228	=228
4CC#/ 4C#	.	4a/ 4ee 4aa	.	2r	.	.	2r	.	.	.
!	!	!	!	!LO:PB:g=original	!	!	!LO:PB:g=original	!	!	!
4BBB/ 4BB	.	4b/ 4ee 4gg#X 4bb	.	.	.	.	.	.	.	.
!LO:PB:g=original	!	!LO:PB:g=original	!	!	!	!	!	!	!	!
=229	=229	=229	=229	=229	=229	=229	=229	=229	=229	=229
4AAA/ 4AA	.	4cc#\ 4ee 4aa 4ccc#	.	2r	.	.	2r	.	.	.
4CCn/ 4Cn	.	4f#/ 4dd 4ff#	.	.	.	.	.	.	.	.
=230	=230	=230	=230	=230	=230	=230	=230	=230	=230	=230
*	*	*^	*	*	*	*	*	*	*	*
2BBB/ 2BB	.	2dd/ 2gg	2g\	.	2r	.	.	2r	.	.	.
*	*	*v	*v	*	*	*	*	*	*	*	*
=231	=231	=231	=231	=231	=231	=231	=231	=231	=231	=231
2AAA/ 2AA	.	2ccn\ 2ff# 2cccn	.	2r	.	.	2r	.	.	.
=232	=232	=232	=232	=232	=232	=232	=232	=232	=232	=232
*	*	*	*	*^	*	*	*^	*	*	*
4GGG/ 4GG	.	4b\ 4gg 4bb	.	4r	4rEEyy	.	.	4r	4rcyy	.	.	.
4r	.	4r	.	4G/	4G\	.	.	4dd/	4b\	jak	.	.
=233	=233	=233	=233	=233	=233	=233	=233	=233	=233	=233	=233	=233
2r	.	2r	.	4G/	4G\	.	.	4dd/	4b\	je-	.	.
.	.	.	.	4Fn/	4F\	.	.	4dd/	4a\	-den	.	.
=234	=234	=234	=234	=234	=234	=234	=234	=234	=234	=234	=234	=234
2r	.	2r	.	2E/	2E\	.	.	2dd/	2g#X\	mąż	.	.
*	*	*	*	*v	*v	*	*	*	*	*	*	*
*	*	*	*	*	*	*	*v	*v	*	*	*
=235	=235	=235	=235	=235	=235	=235	=235	=235	=235	=235
2FFn/ 2Fn	.	2dd\ 2aa 2ddd	.	2r	.	.	2r	.	.	.
=236	=236	=236	=236	=236	=236	=236	=236	=236	=236	=236
*	*	*	*	*^	*	*	*^	*	*	*
4EE/ 4E	.	4dd\ 4gg#X 4ddd	.	4r	4rEEyy	.	.	4r	4rcyy	.	.	.
4r	.	4r	.	4B/	4G#X\	.	.	4ee/	4dd\	gar-	.	.
=237	=237	=237	=237	=237	=237	=237	=237	=237	=237	=237	=237	=237
2r	.	2r	.	4B/	4G#X\	.	.	4ee/	4dd\	-nij-	.	.
.	.	.	.	4B/	4G#\	.	.	4ee/	4dd\	-my	.	.
=238	=238	=238	=238	=238	=238	=238	=238	=238	=238	=238	=238	=238
4r	.	4r	.	2A/	2A\	.	.	2ee/	2cc#\	się	.	.
4AAA/ 4AA	.	4ee\ 4ccc# 4eee	.	.	.	.	.	.	.	.	.	.
*	*	*	*	*v	*v	*	*	*	*	*	*	*
*	*	*	*	*	*	*	*v	*v	*	*	*
=239	=239	=239	=239	=239	=239	=239	=239	=239	=239	=239
4AAA/ 4AA	.	4ee\ 4ccc# 4eee	.	2r	.	.	2r	.	.	.
4AAA/ 4AA	.	4dd\ 4bb 4eee	.	.	.	.	.	.	.	.
=240	=240	=240	=240	=240	=240	=240	=240	=240	=240	=240
*	*	*^	*	*	*	*	*	*	*	*
4AAA/ 4AA	.	4raayy	4cc#\ 4aa 4eee	.	2r	.	.	2r	.	.	.
!	!	!	!	!	!	!LO:LB:g=original	!	!	!LO:LB:g=original	!	!
4AAA/ 4AA	.	4eee/	4ff#\ 4ddd	.	.	.	.	.	.	.	.
!LO:LB:g=original	!	!LO:LB:g=original	!LO:LB:g=original	!	!	!	!	!	!	!	!
=241	=241	=241	=241	=241	=241	=241	=241	=241	=241	=241	=241
*	*	*	*	*	*^	*	*	*^	*	*	*
4AAA/ 4AA	.	4eee/	4ee\ 4ccc#	.	4r	4rEEyy	.	.	4r	4rcyy	.	.	ff
4AAA/ 4AA	.	4eee/	4dd\ 4bb	ff	4G#X/	4E\	.	.	4ee/	4dd\	Do	.	.
*	*	*v	*v	*	*	*	*	*	*	*	*	*	*
=242	=242	=242	=242	=242	=242	=242	=242	=242	=242	=242	=242	=242
4AAA/ 4AA	.	4cc#\ 4aa 4eee	.	[2A/	[2AA\ [2E	.	.	[2aa/	[2cc#\ [2ee	pra-	.	.
4r	.	[4A^/ [4e [4a	.	.	.	.	.	.	.	.	.	.
=243	=243	=243	=243	=243	=243	=243	=243	=243	=243	=243	=243	=243
4AAA/ 4AA	.	8A/L] 8e] 8a]	.	2A/_	2AA\_ 2E_	.	.	2aa/_	2cc#\_ 2ee_	.	.	.
.	.	16B/L	.	.	.	.	.	.	.	.	.	.
.	.	16c#/JJ	.	.	.	.	.	.	.	.	.	.
4r	.	16d/LL	.	.	.	.	.	.	.	.	.	.
.	.	16e/	.	.	.	.	.	.	.	.	.	.
.	.	16f#X/	.	.	.	.	.	.	.	.	.	.
.	.	16g#X/JJ	.	.	.	.	.	.	.	.	.	.
=244	=244	=244	=244	=244	=244	=244	=244	=244	=244	=244	=244	=244
4AAA/ 4AA	.	4a/	.	2A/]	2AA\] 2E]	.	.	2aa/]	2cc#\] 2ee]	.	.	.
4r	.	[4a^\ [4ee [4aa	.	.	.	.	.	.	.	.	.	.
=245	=245	=245	=245	=245	=245	=245	=245	=245	=245	=245	=245	=245
4AAA/ 4AA	.	8a\L] 8ee] 8aa]	.	2AA/	2AA\	.	.	2a/	2a\	-cy!	.	.
.	.	(16b\L	.	.	.	.	.	.	.	.	.	.
.	.	16cc#\JJ	.	.	.	.	.	.	.	.	.	.
4r	.	16dd\LL	.	.	.	.	.	.	.	.	.	.
.	.	16ee\	.	.	.	.	.	.	.	.	.	.
.	.	16ff#\	.	.	.	.	.	.	.	.	.	.
.	.	16gg#X\JJ	.	.	.	.	.	.	.	.	.	.
*	*	*	*	*v	*v	*	*	*	*	*	*	*
*	*	*	*	*	*	*	*v	*v	*	*	*
=246	=246	=246	=246	=246	=246	=246	=246	=246	=246	=246
4AAA/ 4AA	.	4aa\)	.	2r	.	.	2r	.	.	.
4r	.	4a/ 4ee 4aa	.	.	.	.	.	.	.	.
=247	=247	=247	=247	=247	=247	=247	=247	=247	=247	=247
4AAA/ 4AA	.	4r	.	2r	.	.	2r	.	.	.
4r	.	4A/ 4e 4a	.	.	.	.	.	.	.	.
=248	=248	=248	=248	=248	=248	=248	=248	=248	=248	=248
4AAA/ 4AA	.	4r	.	2r	.	.	2r	.	.	.
!	!	!	!	!LO:LB:g=original	!	!	!LO:LB:g=original	!	!	!
4r	.	4a\ 4ee 4aa	.	.	.	.	.	.	.	.
!LO:LB:g=original	!	!LO:LB:g=original	!	!	!	!	!	!	!	!
=249	=249	=249	=249	=249	=249	=249	=249	=249	=249	=249
*	*	*^	*	*	*	*	*	*	*	*
4AAA/ 4AA	.	4r	4rcyy	.	2r	.	.	2r	.	.	.
4r	.	4a/	4e\	.	.	.	.	.	.	.	.
*	*	*v	*v	*	*	*	*	*	*	*	*
=250	=250	=250	=250	=250	=250	=250	=250	=250	=250	=250
4AAA/ 4AA	.	4r	.	2r	.	.	2r	.	.	.
4r	.	4a\ 4ee 4aa	.	.	.	.	.	.	.	.
=251	=251	=251	=251	=251	=251	=251	=251	=251	=251	=251
2r;	.	2r;	.	2r;	.	.	2r;	.	.	.
=252||	=252||	=252||	=252||	=252||	=252||	=252||	=252||	=252||	=252||	=252||
*M3/4	*	*M3/4	*	*M3/4	*	*	*M3/4	*	*	*
*	*	*	*	*^	*	*	*^	*	*	*
!	!	!	!	!	!	!	!	!LO:TX:a:B:t=Maestoso	!	!	!	!
4GGG/ 4GG	.	4b\ 4dd 4gg 4bb	.	4r	4rEEyy	.	.	4r	4rcyy	.	.	ff
4r	.	4r	.	8G/L	8G\L	.	.	8b/L	8b\L	W jej	.	.
.	.	.	.	8A/J	8A\J	.	.	8cc#/J	8cc#\J	.	.	.
4r	.	4r	.	8B/	8B\	.	.	8dd/	8dd\	bla-	.	.
.	.	.	.	8G/	8G\	.	.	8b/	8b\	-sku	.	.
=253	=253	=253	=253	=253	=253	=253	=253	=253	=253	=253	=253	=253
4r	.	4r	.	8F#/	8F#\	.	.	8a/	8a\	ca-	.	.
.	.	.	.	8E/	8E\	.	.	8g/	8g\	-ły	.	.
4DD/ 4D	.	4a\ 4dd 4ff# 4aa	.	8D/	8D\	.	.	8f#/	8f#\	świat	.	.
.	.	.	.	8D/	8D\	.	.	8f#/	8f#\	Zi-	.	.
4r	.	4r	.	8E/	8E\	.	.	8g/	8g\	-szczo-	.	.
.	.	.	.	8F#/	8F#\	.	.	8a/	8a\	-nym	.	.
=254	=254	=254	=254	=254	=254	=254	=254	=254	=254	=254	=254	=254
4r	.	4r	.	8G/L	8G\L	.	.	8b/L	8b\L	Pol-	.	.
.	.	.	.	8A/J	8A\J	.	.	8cc#/J	8cc#\J	.	.	.
4GGG/ 4GG	.	4dd\ 4gg 4bb 4ddd	.	4.B/	4.B\	.	.	4.dd/	4.dd\	-ski	.	.
4GG/ 4G	.	4b\ 4dd 4gg 4bb	.	.	.	.	.	.	.	.	.	.
.	.	.	.	8G/	8G\	.	.	8b/	8b\	przy-	.	.
!LO:PB:g=original	!	!LO:PB:g=original	!	!LO:PB:g=original	!LO:PB:g=original	!	!	!LO:PB:g=original	!LO:PB:g=original	!	!	!
=255	=255	=255	=255	=255	=255	=255	=255	=255	=255	=255	=255	=255
4DD/ 4D	.	8a\L 8dd 8ff# 8aa	.	8F#/	8F#\	.	.	8a/	8a\	-kla-	.	.
.	.	8g\J 8ee 8gg	.	8E/	8E\	.	.	8g/	8g\	-śnie	.	.
4D\ 4d	.	8.f#\L 8.dd 8.ff#	.	4D/	4D\	.	.	4f#/	4f#\	snom	.	.
.	.	16e\Jk 16cc# 16ee	.	.	.	.	.	.	.	.	.	.
[4DD/ [4D	.	8f#\L 8dd 8ff#	.	4r	4rEEyy	.	.	4r	4rcyy	.	.	.
.	.	8g\J 8ee 8gg	.	.	.	.	.	.	.	.	.	.
=256	=256	=256	=256	=256	=256	=256	=256	=256	=256	=256	=256	=256
*	*	*^	*	*	*	*	*	*	*	*	*	*
4DD/] 4D]	.	8.a\L 8.ff# 8.aa	2rcyy	.	4r	4rEEyy	.	.	4r	4rcyy	.	.	.
.	.	16a\Jk 16ff# 16aa	.	.	.	.	.	.	.	.	.	.	.
4.FFF#/ 4.FF#	.	8dd\L 8aa 8ddd	.	.	4r	4rEEyy	.	.	4r	4rcyy	.	.	.
.	.	8cc#\J 8ccc#	.	.	.	.	.	.	.	.	.	.	.
.	.	4dd/	8b\L 8bb	.	8r	8rEEyy	.	.	8r	8rcyy	.	.	.
8FF#/ 8F#	.	.	8a\J 8aa	.	8A/	8F#\	.	.	8dd/	8dd\	Do	.	.
*	*	*v	*v	*	*	*	*	*	*	*	*	*	*
=257	=257	=257	=257	=257	=257	=257	=257	=257	=257	=257	=257	=257
[4GG/ [4G	.	8.b\L 8.dd 8.bb	.	4B/	4G\	.	.	4ff#/	4dd\	pra-	.	.
.	.	16b\Jk 16dd 16bb	.	.	.	.	.	.	.	.	.	.
8GG/L] 8G]	.	8b\L 8dd 8bb	.	4B/	4G\	.	.	4ee/	4dd\	-cy!	.	.
8FF#/ 8F#	.	8a\ 8dd 8aa	.	.	.	.	.	.	.	.	.	.
8EE/ 8E	.	8g\ 8dd 8gg	.	4r	4rEEyy	.	.	4r	4rcyy	.	.	.
8GG/J 8G	.	8f#\J 8dd 8ff#	.	.	.	.	.	.	.	.	.	.
=258	=258	=258	=258	=258	=258	=258	=258	=258	=258	=258	=258	=258
4AA/ 4A	.	8.e/L 8.dd 8.ee	.	8r	8rEEyy	.	.	8r	8rcyy	.	.	.
.	.	.	.	8A/	8A\	.	.	8ee/	8dd\	W niej	.	.
.	.	16e/Jk 16dd 16ee	.	.	.	.	.	.	.	.	.	.
4AAA/ 4AA	.	[4a\ 4dd [4ee [4aa	.	4A/	4A\	.	.	4ee/	4dd\	lep-	.	.
4AA/ 4A	.	8a\L] 8cc# 8ee] 8aa]	.	8A/	8A\	.	.	8ff#/	8cc#\	-szych	.	.
.	.	8g\J 8cc# 8ee 8gg	.	8A/	8A\	.	.	8gg/	8cc#\	za-	.	.
!LO:LB:g=original	!	!LO:LB:g=original	!	!	!LO:LB:g=original	!LO:LB:g=original	!	!	!LO:LB:g=original	!LO:LB:g=original	!	!
=259	=259	=259	=259	=259	=259	=259	=259	=259	=259	=259	=259	=259
4DD/ 4D	.	8.g/L 8.cc# 8.ee 8.gg	.	8.A/	8.D\	.	.	8.gg/	8.cc#\	-po-	.	.
.	.	16f#/Jk 16a 16dd 16ff#	.	16A/	16D\	.	.	16ff#/	16dd\	-wiedź	.	.
4D\ 4d	.	8f#/L 8dd 8ff#	.	4A/	4D\	.	.	4ff#/	4dd\	lat	.	.
.	.	8e/ 8cc# 8ee	.	.	.	.	.	.	.	.	.	.
[4DD/ [4D	.	8f#/ 8dd 8ff#	.	4r	4rEEyy	.	.	4r	4rcyy	.	.	.
.	.	8g/J 8ee 8gg	.	.	.	.	.	.	.	.	.	.
=260	=260	=260	=260	=260	=260	=260	=260	=260	=260	=260	=260	=260
*	*	*^	*	*	*	*	*	*	*	*	*	*
4DD/] 4D]	.	8.a\L 8.ff# 8.aa	4rcyy	.	4r	4rEEyy	.	.	4r	4rcyy	.	.	.
.	.	16a\Jk 16ff# 16aa	.	.	.	.	.	.	.	.	.	.	.
4.FFF#/ 4.FF#	.	4aa/	8dd\L 8ddd	.	4r	4rEEyy	.	.	4r	4rcyy	.	.	.
.	.	.	8cc#\ 8ccc#	.	.	.	.	.	.	.	.	.	.
.	.	4dd/	8b\ 8bb	.	8r	8rEEyy	.	.	8r	8rcyy	.	.	.
8FF#/ 8F#	.	.	8a\J 8aa	.	8A/	8F#\	.	.	8dd/	8dd\	Do	.	.
*	*	*v	*v	*	*	*	*	*	*	*	*	*	*
=261	=261	=261	=261	=261	=261	=261	=261	=261	=261	=261	=261	=261
[4GG/ [4G	.	8.b\L 8.dd 8.bb	.	4B/	4G\	.	.	4ff#/	4dd\	pra-	.	.
.	.	16b\Jk 16dd 16bb	.	.	.	.	.	.	.	.	.	.
8GG/L] 8G]	.	8b\L 8dd 8bb	.	4B/	4G\	.	.	4ee/	4dd\	-cy!	.	.
8FF#/ 8F#	.	8a\ 8dd 8aa	.	.	.	.	.	.	.	.	.	.
8EE/ 8E	.	8g\ 8dd 8gg	.	4r	4rEEyy	.	.	4r	4rcyy	.	.	.
8GG/J 8G	.	8f#\J 8dd 8ff#	.	.	.	.	.	.	.	.	.	.
=262	=262	=262	=262	=262	=262	=262	=262	=262	=262	=262	=262	=262
4AA/ 4A	.	8.e/L 8.dd 8.ee	.	8r	8rEEyy	.	.	8r	8rcyy	.	.	.
.	.	.	.	8d/	8A\	.	.	8ee/	8ee\	Na	.	.
.	.	16e/Jk 16dd 16ee	.	.	.	.	.	.	.	.	.	.
*tremolo	*	*tremolo	*	*tremolo	*	*	*	*	*	*	*	*
32AAA/LLL 32AA	.	32a/LLL 32dd 32ee 32aa	.	4.d/	4.A\	.	.	4.ee/	4.ee\	gło-	.	.
32AAA/ 32AA	.	32a/ 32dd 32ee 32aa	.	.	.	.	.	.	.	.	.	.
32AAA/ 32AA	.	32a/ 32dd 32ee 32aa	.	.	.	.	.	.	.	.	.	.
32AAA/ 32AA	.	32a/ 32dd 32ee 32aa	.	.	.	.	.	.	.	.	.	.
32AAA/ 32AA	.	32a/ 32dd 32ee 32aa	.	.	.	.	.	.	.	.	.	.
32AAA/ 32AA	.	32a/ 32dd 32ee 32aa	.	.	.	.	.	.	.	.	.	.
32AAA/ 32AA	.	32a/ 32dd 32ee 32aa	.	.	.	.	.	.	.	.	.	.
32AAA/ 32AA	.	32a/ 32dd 32ee 32aa	.	.	.	.	.	.	.	.	.	.
32AAA/ 32AA	.	32a/ 32dd 32ee 32aa	.	.	.	.	.	.	.	.	.	.
32AAA/ 32AA	.	32a/ 32dd 32ee 32aa	.	.	.	.	.	.	.	.	.	.
32AAA/ 32AA	.	32a/ 32dd 32ee 32aa	.	.	.	.	.	.	.	.	.	.
32AAA/ 32AA	.	32a/ 32dd 32ee 32aa	.	.	.	.	.	.	.	.	.	.
32AAA/ 32AA	.	32a/ 32dd 32ee 32aa	.	8d/	8A\	.	.	8ee/	8ee\	-wę	.	.
32AAA/ 32AA	.	32a/ 32dd 32ee 32aa	.	.	.	.	.	.	.	.	.	.
32AAA/ 32AA	.	32a/ 32dd 32ee 32aa	.	.	.	.	.	.	.	.	.	.
[32AAA/JJJ [32AA	.	[32a/JJJ [32dd [32ee [32aa	.	.	.	.	.	.	.	.	.	.
=263	=263	=263	=263	=263	=263	=263	=263	=263	=263	=263	=263	=263
32AAA/LLL] 32AA]	.	4a\] 4dd] 4ee] 4aa]	.	4d/	4A\	.	.	4ee/	4ee\	wro-	.	.
32AAA/ 32AA	.	.	.	.	.	.	.	.	.	.	.	.
32AAA/ 32AA	.	.	.	.	.	.	.	.	.	.	.	.
32AAA/ 32AA	.	.	.	.	.	.	.	.	.	.	.	.
32AAA/ 32AA	.	.	.	.	.	.	.	.	.	.	.	.
32AAA/ 32AA	.	.	.	.	.	.	.	.	.	.	.	.
32AAA/ 32AA	.	.	.	.	.	.	.	.	.	.	.	.
32AAA/ 32AA	.	.	.	.	.	.	.	.	.	.	.	.
32AAA/ 32AA	.	32a\LLL 32dd 32ee 32aa	.	4d/	4A\	.	.	4ee/	4ee\	-gów	.	.
32AAA/ 32AA	.	32a\ 32dd 32ee 32aa	.	.	.	.	.	.	.	.	.	.
32AAA/ 32AA	.	32a\ 32dd 32ee 32aa	.	.	.	.	.	.	.	.	.	.
32AAA/ 32AA	.	32a\ 32dd 32ee 32aa	.	.	.	.	.	.	.	.	.	.
32AAA/ 32AA	.	32a\ 32dd 32ee 32aa	.	.	.	.	.	.	.	.	.	.
32AAA/ 32AA	.	32a\ 32dd 32ee 32aa	.	.	.	.	.	.	.	.	.	.
32AAA/ 32AA	.	32a\ 32dd 32ee 32aa	.	.	.	.	.	.	.	.	.	.
32AAA/ 32AA	.	32a\ 32dd 32ee 32aa	.	.	.	.	.	.	.	.	.	.
32AAA/ 32AA	.	32a\ 32dd 32ee 32aa	.	4d/	4A\	.	.	4ee/	4ee\	naj-	.	.
!	!	!	!	!	!LO:LB:g=original	!LO:LB:g=original	!	!	!	!LO:LB:g=original	!	!
32AAA/ 32AA	.	32a\ 32dd 32ee 32aa	.	.	.	.	.	.	.	.	.	.
32AAA/ 32AA	.	32a\ 32dd 32ee 32aa	.	.	.	.	.	.	.	.	.	.
32AAA/ 32AA	.	32a\ 32dd 32ee 32aa	.	.	.	.	.	.	.	.	.	.
32AAA/ 32AA	.	32a\ 32dd 32ee 32aa	.	.	.	.	.	.	.	.	.	.
32AAA/ 32AA	.	32a\ 32dd 32ee 32aa	.	.	.	.	.	.	.	.	.	.
32AAA/ 32AA	.	32a\ 32dd 32ee 32aa	.	.	.	.	.	.	.	.	.	.
32AAA/JJJ 32AA	.	[32a\JJJ [32dd [32ee [32aa	.	.	.	.	.	.	.	.	.	.
!LO:LB:g=original	!LO:LB:g=original	!LO:LB:g=original	!	!	!	!	!	!	!	!	!	!
=264	=264	=264	=264	=264	=264	=264	=264	=264	=264	=264	=264	=264
4AAA/ 4AA	.	4a\] 4dd] 4ee] 4aa]	.	4c#/	4A\	.	.	4aa/	4ee\	-cięż-	.	.
4AA\ 4A	.	4b\ 4dd 4gg 4bb	.	4B/	4AA\	.	.	4gg/	4dd\	-szy	.	.
4AAA/ 4AA	.	4cc#\ 4gg 4aa 4ccc#	.	4G/	4AA\	.	.	4ee/ 4ff#	4cc#\	to	.	.
*	*	*	*	*v	*v	*	*	*	*	*	*	*
*	*	*	*	*	*	*	*v	*v	*	*	*
=265||	=265||	=265||	=265||	=265||	=265||	=265||	=265||	=265||	=265||	=265||
*M2/4	*	*M2/4	*	*M2/4	*	*	*M2/4	*	*	*
*	*	*	*	*^	*	*	*^	*	*	*
!	!	!	!	!	!	!	!	!LO:TX:a:Bi:t=Vivace.	!	!	!	!
4DD/ 4D	.	4dd\ 4ff# 4aa 4ddd	ff	4F#/	4D\	.	.	4dd/	4a\	grom!	.	.
4AA/	.	[4aa\	.	4r	[4rEEyy	.	.	4r	[4rcyy	.	.	.
=266	=266	=266	=266	=266	=266	=266	=266	=266	=266	=266	=266	=266
*	*	*^	*	*	*	*	*	*	*	*	*	*
4DD/	.	8aa/L]	4aa\	.	4r	4rEE]	.	.	4r	4rc]	.	.	.
.	.	16aa/L	.	.	.	.	.	.	.	.	.	.	.
.	.	16bb/JJ	.	.	.	.	.	.	.	.	.	.	.
4AA/	.	[4aa/	4rc	.	4A/	4A\	.	.	4a/	4a\	Do	.	.
*	*	*v	*v	*	*	*	*	*	*	*	*	*	*
=267	=267	=267	=267	=267	=267	=267	=267	=267	=267	=267	=267	=267
4DD/	.	8aa/L]	.	2F#/	2D\	.	.	2dd/	2a\	pra-	.	.
.	.	16aa/L	.	.	.	.	.	.	.	.	.	.
.	.	16bb/JJ	.	.	.	.	.	.	.	.	.	.
4AA/	.	[4aa/	.	.	.	.	.	.	.	.	.	.
=268	=268	=268	=268	=268	=268	=268	=268	=268	=268	=268	=268	=268
4DD/	.	8aa/L]	.	4.E/	4.D\	.	.	4.cc#/	4.g\	-cy	.	.
.	.	16aa/L	.	.	.	.	.	.	.	.	.	.
.	.	16bb/JJ	.	.	.	.	.	.	.	.	.	.
4AA/	.	[4aa/	.	.	.	.	.	.	.	.	.	.
.	.	.	.	8E/	8D\	.	.	8b/	8g\	do	.	.
=269	=269	=269	=269	=269	=269	=269	=269	=269	=269	=269	=269	=269
4DD/	.	8aa/L]	.	2G/	2D\	.	.	2ee/	2b\	pra-	.	.
.	.	16aa/L	.	.	.	.	.	.	.	.	.	.
.	.	16bb/JJ	.	.	.	.	.	.	.	.	.	.
4AA/	.	[4aa/	.	.	.	.	.	.	.	.	.	.
=270	=270	=270	=270	=270	=270	=270	=270	=270	=270	=270	=270	=270
4DD/	.	8aa/L]	.	4G/	4D\	.	.	4b/	4b\	-cy!	.	.
.	.	16aa/L	.	.	.	.	.	.	.	.	.	.
.	.	16bb/JJ	.	.	.	.	.	.	.	.	.	.
4AA/	.	[4aa/	.	4G/	4D\	.	.	4b/	4b\	do	.	.
=271	=271	=271	=271	=271	=271	=271	=271	=271	=271	=271	=271	=271
4DD/	.	8aa/L]	.	2G/	2D\	.	.	2ee/	2a\	pra-	.	.
!	!	!	!	!LO:PB:g=original	!LO:PB:g=original	!	!	!LO:PB:g=original	!LO:LB:g=original	!	!	!
.	.	16aa/L	.	.	.	.	.	.	.	.	.	.
.	.	16bb/JJ	.	.	.	.	.	.	.	.	.	.
4AA/	.	[4aa/	.	.	.	.	.	.	.	.	.	.
!LO:PB:g=original	!	!LO:PB:g=original	!	!	!	!	!	!	!	!	!	!
=272	=272	=272	=272	=272	=272	=272	=272	=272	=272	=272	=272	=272
4DD/	.	8aa/L]	.	4.G/	4.D\	.	.	4.cc#/	4.a\	-cy!	.	.
.	.	16aa/L	.	.	.	.	.	.	.	.	.	.
.	.	16bb/JJ	.	.	.	.	.	.	.	.	.	.
4AA/	.	[4aa/	.	.	.	.	.	.	.	.	.	.
.	.	.	.	8G/	8D\	.	.	8cc#/	8g\	do	.	.
=273	=273	=273	=273	=273	=273	=273	=273	=273	=273	=273	=273	=273
4DD/	.	8aa/L]	.	2A/	2D\	.	.	2ff#/	2dd\	pra-	.	.
.	.	16aa/L	.	.	.	.	.	.	.	.	.	.
.	.	16bb/JJ	.	.	.	.	.	.	.	.	.	.
4AA/	.	[4aa/	.	.	.	.	.	.	.	.	.	.
=274	=274	=274	=274	=274	=274	=274	=274	=274	=274	=274	=274	=274
4DD/	.	8aa/L]	.	4F#/	4D\	.	.	4dd/	4a\	-cy!	.	.
.	.	16aa/L	.	.	.	.	.	.	.	.	.	.
.	.	16bb/JJ	.	.	.	.	.	.	.	.	.	.
4AA/	.	[4aa/	.	4r	4rEEyy	.	.	4r	4rcyy	.	.	.
*	*	*	*	*v	*v	*	*	*	*	*	*	*
*	*	*	*	*	*	*	*v	*v	*	*	*
=275	=275	=275	=275	=275	=275	=275	=275	=275	=275	=275
4DD/	.	8aa/L]	.	2r	.	.	2r	.	.	.
.	.	16aa/L	.	.	.	.	.	.	.	.
.	.	16bb/JJ	.	.	.	.	.	.	.	.
4AA/	.	[4aa/	.	.	.	.	.	.	.	.
=276	=276	=276	=276	=276	=276	=276	=276	=276	=276	=276
*	*	*^	*	*	*	*	*	*	*	*
4DD/	.	8aa/L]	4b\	.	2r	.	.	2r	.	.	.
.	.	16aa/L	.	.	.	.	.	.	.	.	.
.	.	16bb/JJ	.	.	.	.	.	.	.	.	.
4AA/	.	[4gg/	4cc#\	.	.	.	.	.	.	.	.
=277	=277	=277	=277	=277	=277	=277	=277	=277	=277	=277	=277
4DD/	.	8gg/L]	4dd\	.	2r	.	.	2r	.	.	.
.	.	16gg/L	.	.	.	.	.	.	.	.	.
.	.	16aa/JJ	.	.	.	.	.	.	.	.	.
4AA/	.	[4ff#/	[4a\	.	.	.	.	.	.	.	.
=278	=278	=278	=278	=278	=278	=278	=278	=278	=278	=278	=278
4DD/	.	8ff#/L]	4a\]	.	2r	.	.	2r	.	.	.
.	.	16ff#/L	.	.	.	.	.	.	.	.	.
.	.	16gg/JJ	.	.	.	.	.	.	.	.	.
4AA/	.	8ee/L	4g#X\	.	.	.	.	.	.	.	.
.	.	8dd/J	.	.	.	.	.	.	.	.	.
=279	=279	=279	=279	=279	=279	=279	=279	=279	=279	=279	=279
4DD/	.	8cc#/L	8a\	.	2r	.	.	2r	.	.	.
!	!	!	!	!	!LO:LB:g=original	!	!	!LO:LB:g=original	!	!	!
.	.	16a/L	8e\	.	.	.	.	.	.	.	.
.	.	16b/JJ	.	.	.	.	.	.	.	.	.
4AA/	.	[4a/	4A\	.	.	.	.	.	.	.	.
!LO:LB:g=original	!	!LO:LB:g=original	!LO:LB:g=original	!	!	!	!	!	!	!	!
=280	=280	=280	=280	=280	=280	=280	=280	=280	=280	=280	=280
4DD/	.	8a/L]	4B\	.	2r	.	.	2r	.	.	.
.	.	16a/L	.	.	.	.	.	.	.	.	.
.	.	16b/JJ	.	.	.	.	.	.	.	.	.
4AA/	.	[4g/	4c#\	.	.	.	.	.	.	.	.
=281	=281	=281	=281	=281	=281	=281	=281	=281	=281	=281	=281
4DD/	.	8g/L]	4d\	.	2r	.	.	2r	.	.	.
.	.	16g/L	.	.	.	.	.	.	.	.	.
.	.	16a/JJ	.	.	.	.	.	.	.	.	.
4AA/	.	[4f#/	4A\	.	.	.	.	.	.	.	.
=282	=282	=282	=282	=282	=282	=282	=282	=282	=282	=282	=282
4DD/	.	8f#/L]	4G#X\	.	2r	.	.	2r	.	.	.
.	.	16f#/L	.	.	.	.	.	.	.	.	.
.	.	16g/JJ	.	.	.	.	.	.	.	.	.
4AA/	.	8f#/L	4Gn\	.	.	.	.	.	.	.	.
.	.	8e/J	.	.	.	.	.	.	.	.	.
=283	=283	=283	=283	=283	=283	=283	=283	=283	=283	=283	=283
4DD/	.	4F#/ 4d	4F#\	.	2r	.	.	2r	.	.	.
4AA/	.	4A/ [4f# [4a	[4A/	.	.	.	.	.	.	.	.
=284	=284	=284	=284	=284	=284	=284	=284	=284	=284	=284	=284
4DD/	.	8f#/L] 8a]	4A\]	.	2r	.	.	2r	.	.	.
.	.	8e/	.	.	.	.	.	.	.	.	.
4AA/	.	8a/	[4A\	.	.	.	.	.	.	.	.
.	.	8e/J	.	.	.	.	.	.	.	.	.
=285	=285	=285	=285	=285	=285	=285	=285	=285	=285	=285	=285
4DD/	.	4f#/	4A\]	.	2r	.	.	2r	.	.	.
4AA/	.	4A/ 4f# [4a	[4A/	.	.	.	.	.	.	.	.
=286	=286	=286	=286	=286	=286	=286	=286	=286	=286	=286	=286
*	*	*	*	*	*^	*	*	*^	*	*	*
4DD/	.	8f#/L 8a]	4A\]	.	4r	4rEEyy	.	.	4r	4rcyy	.	.	ff
.	.	8e/	.	.	.	.	.	.	.	.	.	.	.
4AA/	.	8a/	[4A\	.	4A/	4A\	.	.	4ee/	4cc#X\	do	.	.
.	.	8e/J	.	.	.	.	.	.	.	.	.	.	.
=287	=287	=287	=287	=287	=287	=287	=287	=287	=287	=287	=287	=287	=287
4DD/	.	8f#/L	4A\]	.	[2A/	[2D\	.	.	[2aa/	[2dd\ [2ff#	pra-	.	.
.	.	8e/	.	.	.	.	.	.	.	.	.	.	.
4AA/	.	8a/	[4A\	.	.	.	.	.	.	.	.	.	.
.	.	8e/J	.	.	.	.	.	.	.	.	.	.	.
=288	=288	=288	=288	=288	=288	=288	=288	=288	=288	=288	=288	=288	=288
4DD/	.	8f#/L	4A\]	.	2A/_	2D\_	.	.	2aa/_	2dd\_ 2ff#_	.	.	.
!	!	!	!	!	!LO:LB:g=original	!LO:LB:g=original	!	!	!LO:LB:g=original	!	!	!	!
.	.	8e/	.	.	.	.	.	.	.	.	.	.	.
4AA/	.	8a/	[4A\	.	.	.	.	.	.	.	.	.	.
.	.	8e/J	.	.	.	.	.	.	.	.	.	.	.
!LO:LB:g=original	!	!LO:LB:g=original	!	!	!	!	!	!	!	!	!	!	!
=289	=289	=289	=289	=289	=289	=289	=289	=289	=289	=289	=289	=289	=289
4DD/	.	8f#/L	4A\]	.	2A/_	2D\_	.	.	2aa/_	2dd\_ 2ff#_	.	.	.
.	.	8e/	.	.	.	.	.	.	.	.	.	.	.
4AA/	.	8a/	[4A\	.	.	.	.	.	.	.	.	.	.
.	.	8e/J	.	.	.	.	.	.	.	.	.	.	.
=290	=290	=290	=290	=290	=290	=290	=290	=290	=290	=290	=290	=290	=290
4DD/	.	8f#/L	4A\]	.	2A/_	2D\_	.	.	2aa/_	2dd\_ 2ff#_	.	.	.
.	.	8e/	.	.	.	.	.	.	.	.	.	.	.
4AA/	.	8a/	[4A\	.	.	.	.	.	.	.	.	.	.
.	.	8e/J	.	.	.	.	.	.	.	.	.	.	.
*	*	*v	*v	*	*	*	*	*	*	*	*	*	*
=291	=291	=291	=291	=291	=291	=291	=291	=291	=291	=291	=291	=291
4DD/	.	4A/] 4f#	.	2A/]	2D\]	.	.	2aa/]	2dd\] 2ff#]	.	.	.
4AA/	.	4A/ 4d 4a	.	.	.	.	.	.	.	.	.	.
=292	=292	=292	=292	=292	=292	=292	=292	=292	=292	=292	=292	=292
4DD/	.	4r	.	4F#/	4D\	.	.	4dd/	4a\	-cy!	.	.
4AA/	.	4a\ 4dd 4ee 4aa	.	4r	4rEEyy	.	.	4r	4rcyy	.	.	.
*	*	*	*	*v	*v	*	*	*	*	*	*	*
*	*	*	*	*	*	*	*v	*v	*	*	*
=293	=293	=293	=293	=293	=293	=293	=293	=293	=293	=293
4DD/	.	4r	.	2r	.	.	2r	.	.	.
4AA/	.	4A/ 4d 4a	.	.	.	.	.	.	.	.
=294	=294	=294	=294	=294	=294	=294	=294	=294	=294	=294
4DD/	.	4r	.	2r	.	.	2r	.	.	.
4AA/	.	4a\ 4dd 4ee 4aa	.	.	.	.	.	.	.	.
=295	=295	=295	=295	=295	=295	=295	=295	=295	=295	=295
4DD/	.	4dd\ 4ff# 4aa 4ddd	.	2r	.	.	2r	.	.	.
4AA/	.	4r	.	.	.	.	.	.	.	.
=296	=296	=296	=296	=296	=296	=296	=296	=296	=296	=296
*tremolo	*	*	*	*	*	*	*	*	*	*
32DD/LLL	.	2r	.	2r	.	.	2r	.	.	.
32D/	.	.	.	.	.	.	.	.	.	.
32DD/	.	.	.	.	.	.	.	.	.	.
32D/	.	.	.	.	.	.	.	.	.	.
32DD/	.	.	.	.	.	.	.	.	.	.
32D/	.	.	.	.	.	.	.	.	.	.
32DD/	.	.	.	.	.	.	.	.	.	.
32D/	.	.	.	.	.	.	.	.	.	.
32DD/	.	.	.	.	.	.	.	.	.	.
32D/	.	.	.	.	.	.	.	.	.	.
32DD/	.	.	.	.	.	.	.	.	.	.
32D/	.	.	.	.	.	.	.	.	.	.
32DD/	.	.	.	.	.	.	.	.	.	.
32D/	.	.	.	.	.	.	.	.	.	.
32DD/	.	.	.	.	.	.	.	.	.	.
32D/JJJ	.	.	.	.	.	.	.	.	.	.
=297	=297	=297	=297	=297	=297	=297	=297	=297	=297	=297
32DD/LLL	.	[2d/ [2f# [2a [2dd	.	2r	.	.	2r	.	.	.
32D/	.	.	.	.	.	.	.	.	.	.
32DD/	.	.	.	.	.	.	.	.	.	.
32D/	.	.	.	.	.	.	.	.	.	.
32DD/	.	.	.	.	.	.	.	.	.	.
32D/	.	.	.	.	.	.	.	.	.	.
32DD/	.	.	.	.	.	.	.	.	.	.
32D/	.	.	.	.	.	.	.	.	.	.
32DD/	.	.	.	.	.	.	.	.	.	.
32D/	.	.	.	.	.	.	.	.	.	.
32DD/	.	.	.	.	.	.	.	.	.	.
32D/	.	.	.	.	.	.	.	.	.	.
32DD/	.	.	.	.	.	.	.	.	.	.
32D/	.	.	.	.	.	.	.	.	.	.
32DD/	.	.	.	.	.	.	.	.	.	.
32D/JJJ	.	.	.	.	.	.	.	.	.	.
=298	=298	=298	=298	=298	=298	=298	=298	=298	=298	=298
32DD/LLL	.	4.d/] 4.f#] 4.a] 4.dd]	.	2r	.	.	2r	.	.	.
32D/	.	.	.	.	.	.	.	.	.	.
32DD/	.	.	.	.	.	.	.	.	.	.
32D/	.	.	.	.	.	.	.	.	.	.
32DD/	.	.	.	.	.	.	.	.	.	.
32D/	.	.	.	.	.	.	.	.	.	.
32DD/	.	.	.	.	.	.	.	.	.	.
32D/	.	.	.	.	.	.	.	.	.	.
32DD/	.	.	.	.	.	.	.	.	.	.
32D/	.	.	.	.	.	.	.	.	.	.
32DD/	.	.	.	.	.	.	.	.	.	.
32D/	.	.	.	.	.	.	.	.	.	.
32DD/	.	8d/ 8f# 8a 8dd	.	.	.	.	.	.	.	.
32D/	.	.	.	.	.	.	.	.	.	.
32DD/	.	.	.	.	.	.	.	.	.	.
32D/JJJ	.	.	.	.	.	.	.	.	.	.
=299	=299	=299	=299	=299	=299	=299	=299	=299	=299	=299
32DD;/LLL	.	2d;/ 2f# 2a 2dd	.	2r;	.	.	2r;	.	.	.
32D/	.	.	.	.	.	.	.	.	.	.
32DD/	.	.	.	.	.	.	.	.	.	.
32D/	.	.	.	.	.	.	.	.	.	.
32DD/	.	.	.	.	.	.	.	.	.	.
32D/	.	.	.	.	.	.	.	.	.	.
32DD/	.	.	.	.	.	.	.	.	.	.
32D/	.	.	.	.	.	.	.	.	.	.
32DD/	.	.	.	.	.	.	.	.	.	.
32D/	.	.	.	.	.	.	.	.	.	.
32DD/	.	.	.	.	.	.	.	.	.	.
32D/	.	.	.	.	.	.	.	.	.	.
32DD/	.	.	.	.	.	.	.	.	.	.
32D/	.	.	.	.	.	.	.	.	.	.
32DD/	.	.	.	.	.	.	.	.	.	.
32D/JJJ	.	.	.	.	.	.	.	.	.	.
==	==	==	==	==	==	==	==	==	==	==
*-	*-	*-	*-	*-	*-	*-	*-	*-	*-	*-
!!!system-decoration: s1,s2[(s3,s4)]
!!!ENC: Mateusz Solarz
!!!END: 2022-03-28
!!!ENC: Julita Ruszuk
!!!END: 2022-03-30
!!!YEC: Copyright 2022 Narodowy Instytut Fryderyka Chopina (https://polishscores.org)
!!!YEM: Licence CC BY 4.0 (https://creativecommons.org/licenses/by/4.0)
